!!!!SEGMENT: pl-cz--iii-203--001-003_engel-jan--sinfonia-in-b-allegretto.krn
!!!cenid: 17xx:884
!!!COM: Engel, Jan
!!!COM-rismid: pe30009138
!!!CDT: <1772->1788
!!!CNT:
!!!OPR: Sinfonia in B
!!!OTL: Allegretto
!!!OMV: 003
!!!PDT:
!!!AGN: Secular
!!!SMS-siglum: PL-CZ
!!!SMS-shelfmark: III-203
!!!SMS-shelfwork: 001-003 M
!!!SMS-variant:
!!!SMS-altvar:
!!!NIFC-rismid: 300000298
!!!URL-scan: http://repozytorium.nifc.pl/skany/pl-cz-nut--iii-203
!!!ONB-nifc: UWAGA: części Sinfonii: Allegro, Andante con sordini, Allegretto
!!!key: B-
**kern	**dynam	**kern	**dynam	**kern	**dynam	**kern	**dynam	**kern	**dynam	**kern	**dynam	**kern	**dynam	**kern	**dynam
*part8	*part8	*part7	*part7	*part6	*part6	*part5	*part5	*part4	*part4	*part3	*part3	*part2	*part2	*part1	*part1
*staff8	*	*staff7	*	*staff6	*	*staff5	*	*staff4	*	*staff3	*	*staff2	*	*staff1	*
*I"Basso	*	*I"Alto Viola	*	*I"Violino Secundo	*	*I"Violino Primo	*	*I"Cornu 2do in B.	*	*I"Cornu 1mo in B.	*	*I"Oboe Secondo	*	*I"Oboe Primo	*
*I'Vc.	*	*I'Va	*	*I'Vn II	*	*I'Vn I	*	*I'C.II in B	*	*I'C.I in B	*	*I'Ob. II	*	*I'Ob. I	*
*Icello	*	*Iviola	*	*Ivioln	*	*Ivioln	*	*Icor	*	*Icor	*	*Ioboe	*	*Ioboe	*
*ICstr	*	*ICstr	*	*ICstr	*	*ICstr	*	*ICbras	*	*ICbras	*	*ICww	*	*ICww	*
*clefF4	*	*clefC3	*	*clefG2	*	*clefG2	*	*clefG2	*	*clefG2	*	*clefG2	*	*clefG2	*
*	*	*	*	*	*	*	*	*ITrd1c2	*	*ITrd1c2	*	*	*	*	*
*k[b-e-]	*	*k[b-e-]	*	*k[b-e-]	*	*k[b-e-]	*	*k[b-e-]	*	*k[b-e-]	*	*k[b-e-]	*	*k[b-e-]	*
*B-:	*	*B-:	*	*B-:	*	*B-:	*	*B-:	*	*B-:	*	*B-:	*	*B-:	*
*M4/4	*	*M4/4	*	*M4/4	*	*M4/4	*	*M4/4	*	*M4/4	*	*M4/4	*	*M4/4	*
*met(c)	*	*met(c)	*	*met(c)	*	*met(c)	*	*met(c)	*	*met(c)	*	*met(c)	*	*met(c)	*
*2\right	*	*2\right	*	*2\right	*	*2\right	*	*2\right	*	*2\right	*	*2\right	*	*2\right	*
!	!LO:DY:b:t=po.	!	!LO:DY:b:t=po.	!	!LO:DY:b:t=po	!	!LO:DY:b:t=po..	!	!	!	!	!	!	!	!
4F\	p	4f\	p	4f/	p	4f/	p	4r	.	4r	.	4r	.	4r	.
=1	=1	=1	=1	=1	=1	=1	=1	=1	=1	=1	=1	=1	=1	=1	=1
4.F\	.	4.f\	.	(4.f/	.	(4.f/	.	1r	.	1r	.	1r	.	1r	.
8E-\	.	8e-\	.	8e-/	.	8e-/)	.	.	.	.	.	.	.	.	.
4D\	.	4d\	.	4d'/)	.	4d'/	.	.	.	.	.	.	.	.	.
4D\	.	4d\	.	4d'/	.	4d'/	.	.	.	.	.	.	.	.	.
=2	=2	=2	=2	=2	=2	=2	=2	=2	=2	=2	=2	=2	=2	=2	=2
4.D/	.	4.d\	.	(4.d/	.	4.d/	.	1r	.	1r	.	1r	.	1r	.
8C/	.	8c\	.	8c/)	.	8c/	.	.	.	.	.	.	.	.	.
4BB-/	.	4B-\	.	4B-'/	.	4B-/	.	.	.	.	.	.	.	.	.
4BB-/	.	4B-\	.	4B-'/	.	4B-/	.	.	.	.	.	.	.	.	.
=3	=3	=3	=3	=3	=3	=3	=3	=3	=3	=3	=3	=3	=3	=3	=3
4C'/	.	4c\	.	4c'/	.	4c'/	.	1r	.	1r	.	1r	.	1r	.
4BB-'/	.	4B-\	.	4B-'/	.	4B-'/	.	.	.	.	.	.	.	.	.
4C'/	.	4c\	.	4c'/	.	4c'/	.	.	.	.	.	.	.	.	.
4D'/	.	4d\	.	4d'/	.	4d'/	.	.	.	.	.	.	.	.	.
=4	=4	=4	=4	=4	=4	=4	=4	=4	=4	=4	=4	=4	=4	=4	=4
8BB-/L	.	(8B-\L	.	(8B-/L	.	8B-/L	.	1r	.	1r	.	1r	.	1r	.
(8AA/	.	8A\	.	8A/)	.	(8A/	.	.	.	.	.	.	.	.	.
8BB-/	.	8B-\	.	(8B-/	.	8B-/	.	.	.	.	.	.	.	.	.
8C/J)	.	8c\J)	.	8c/J)	.	8c/J)	.	.	.	.	.	.	.	.	.
8BB-/L	.	8B-\L	.	(8d/L	.	8d/L	.	.	.	.	.	.	.	.	.
(8AA/	.	(8A\	.	8c/)	.	(8c/	.	.	.	.	.	.	.	.	.
8BB-/	.	8B-\	.	(8d/	.	8d/	.	.	.	.	.	.	.	.	.
8C/J)	.	8c\J)	.	8e-/J)	.	8e-/J)	.	.	.	.	.	.	.	.	.
=5	=5	=5	=5	=5	=5	=5	=5	=5	=5	=5	=5	=5	=5	=5	=5
!	!	!	!	!	!	!	!	!	!LO:DY:b:t=po.	!	!LO:DY:b:t=po&colon;	!	!LO:DY:b:t=pia.	!	!LO:DY:b:t=pia.
2BB-/	.	4.d\	.	4.f/	.	4.f/	.	4.dd\	p	4.ff\	p	4.dd\	p	4.ff\	p
.	.	8c\	.	8e-/	.	8e-/	.	8cc\	.	8ee-\	.	8cc\	.	8ee-\	.
2r	.	4B-\	.	4d/	.	4d/	.	4b-\	.	4dd\	.	4b-\	.	4dd\	.
.	.	4B-\	.	4d/	.	4d/	.	4b-\	.	4dd\	.	4b-\	.	4dd\	.
!	!	!LO:LB:g=original	!	!	!	!	!	!	!	!	!	!	!	!	!
=6	=6	=6	=6	=6	=6	=6	=6	=6	=6	=6	=6	=6	=6	=6	=6
2BB-/	.	4.f\	.	4.d/	.	4.d/	.	4.b-\	.	4.dd\	.	4.b-/	.	4.dd\	.
.	.	8e-\	.	8c/	.	8c/	.	8f/	.	8cc\	.	8f/	.	8cc\	.
2r	.	4d\	.	4B-/	.	4B-'/	.	4d/	.	4b-\	.	4d/	.	4b-\	.
.	.	4d\	.	4B-/	.	4B-'/	.	4d/	.	4b-\	.	4d/	.	4b-\	.
!	!	!	!	!LO:LB:g=original	!	!	!	!	!	!	!	!	!	!	!
=7	=7	=7	=7	=7	=7	=7	=7	=7	=7	=7	=7	=7	=7	=7	=7
2F\	.	4e-'\	.	4c'/	.	4c'/	.	4f/	.	4cc'\	.	4e-/	.	4cc'\	.
.	.	4d'\	.	4B-'/	.	4B-'/	.	4d/	.	4b-'\	.	4d/	.	4b-'\	.
2FF/	.	4e-'\	.	4c'/	.	4c'/	.	4f/	.	4cc'\	.	4e-/	.	4cc'\	.
.	.	4c'\	.	4d'/	.	4d'/	.	4b-\	.	4dd'\	.	4f/	.	4dd'\	.
!	!	!	!	!	!	!LO:LB:g=original	!	!	!	!	!	!	!	!	!
=	=	=	=	=	=	=	=	=	=	=	=	=	=	=	=
2BB-/	.	2d\	.	2B-/	.	2B-/	.	2d/	.	2b-\	.	2d/	.	2b-\	.
4r	.	4r	.	4r	.	4r	.	4r	.	4r	.	4r	.	4r	.
=8:|!|:	=8:|!|:	=8:|!|:	=8:|!|:	=8:|!|:	=8:|!|:	=8:|!|:	=8:|!|:	=8:|!|:	=8:|!|:	=8:|!|:	=8:|!|:	=8:|!|:	=8:|!|:	=8:|!|:	=8:|!|:
!	!	!	!	!	!	!	!	!	!	!	!	!LO:TX:b:t=dolce	!	!LO:TX:b:t=dolce	!
4r	.	4r	.	4r	.	4r	.	4r	.	4r	.	4b-\	.	4dd\	.
!LO:LB:g=original	!	!	!	!	!	!	!	!	!	!	!	!LO:LB:g=original	!	!LO:LB:g=original	!
=9	=9	=9	=9	=9	=9	=9	=9	=9	=9	=9	=9	=9	=9	=9	=9
!	!	!	!	!	!	!	!	!	!LO:DY:b:t=po..	!	!LO:DY:b:t=po&colon;	!	!	!	!
1r	.	1r	.	1r	.	1r	.	1f	p	1f	p	4b-'\	.	4dd'\	.
.	.	.	.	.	.	.	.	.	.	.	.	4b-'\	.	4dd'\	.
.	.	.	.	.	.	.	.	.	.	.	.	(4b-\	.	(4dd\	.
.	.	.	.	.	.	.	.	.	.	.	.	4cc\)	.	4ee-\)	.
=10	=10	=10	=10	=10	=10	=10	=10	=10	=10	=10	=10	=10	=10	=10	=10
1r	.	1r	.	1r	.	1r	.	1f	.	1f	.	4a'\	.	4cc'\	.
.	.	.	.	.	.	.	.	.	.	.	.	4a'\	.	4cc'\	.
.	.	.	.	.	.	.	.	.	.	.	.	(4a\	.	(4cc\	.
.	.	.	.	.	.	.	.	.	.	.	.	4b-\)	.	4dd\)	.
!	!	!	!	!	!	!	!	!	!	!LO:LB:g=original	!	!	!	!	!
=11	=11	=11	=11	=11	=11	=11	=11	=11	=11	=11	=11	=11	=11	=11	=11
1r	.	1r	.	1r	.	1r	.	1f	.	1f	.	4cc'\	.	4ee-'\	.
.	.	.	.	.	.	.	.	.	.	.	.	4cc'\	.	4ee-'\	.
.	.	.	.	.	.	.	.	.	.	.	.	(4cc\	.	(4ee-\	.
.	.	.	.	.	.	.	.	.	.	.	.	4dd\)	.	4ff\)	.
!	!	!	!	!	!	!	!	!LO:LB:g=original	!	!	!	!	!	!	!
=12	=12	=12	=12	=12	=12	=12	=12	=12	=12	=12	=12	=12	=12	=12	=12
1r	.	1r	.	2r	.	2r	.	2f/	.	2f/	.	2cc\	.	(2ee-\	.
.	.	.	.	4r	.	4r	.	2r	.	2r	.	(4b-\	.	4dd\)	.
!	!	!	!	!	!LO:DY:b:t=po..	!	!LO:DY:b:t=po	!	!	!	!	!	!	!	!
.	.	.	.	4c/	p	4e-/	p	.	.	.	.	4cc\)	.	4ee-\	.
=13	=13	=13	=13	=13	=13	=13	=13	=13	=13	=13	=13	=13	=13	=13	=13
!	!LO:DY:b:t=po	!	!LO:DY:b:t=po	!	!	!	!	!	!	!	!	!	!	!	!
1B-	p	1B-	p	2.d/	.	2.f/	.	1r	.	1r	.	4dd'\	.	4ff'\	.
.	.	.	.	.	.	.	.	.	.	.	.	4dd'\	.	4ff'\	.
.	.	.	.	.	.	.	.	.	.	.	.	(4dd\	.	(4ff\	.
.	.	.	.	4f/	.	4a-X/	.	.	.	.	.	4ff\)	.	4aa-X\)	.
=14	=14	=14	=14	=14	=14	=14	=14	=14	=14	=14	=14	=14	=14	=14	=14
2.c\	.	1B-	.	2.e-/	.	2.g/	.	1r	.	1r	.	4ee-'\	.	4gg'\	.
.	.	.	.	.	.	.	.	.	.	.	.	4ee-'\	.	4gg'\	.
.	.	.	.	.	.	.	.	.	.	.	.	(4ee-\	.	(4gg\	.
4d\	.	.	.	4d/	.	4f/	.	.	.	.	.	4dd\)	.	4ff\)	.
=15	=15	=15	=15	=15	=15	=15	=15	=15	=15	=15	=15	=15	=15	=15	=15
2.e-\	.	1B-	.	2.c/	.	2.e-/	.	1r	.	1r	.	4cc'\	.	4ee-'\	.
.	.	.	.	.	.	.	.	.	.	.	.	4cc'\	.	4ee-'\	.
.	.	.	.	.	.	.	.	.	.	.	.	(4cc\	.	(4ee-\	.
4en\	.	.	.	4B-/	.	4d/	.	.	.	.	.	4b-\)	.	4dd\)	.
=16	=16	=16	=16	=16	=16	=16	=16	=16	=16	=16	=16	=16	=16	=16	=16
2f\	.	2.f\	.	2B-/	.	2d/	.	1r	.	1r	.	2b-\	.	2dd\	.
2r	.	.	.	4A/	.	4c/	.	.	.	.	.	4a\	.	4cc\	.
!	!	!	!	!	!	!	!LO:DY:b:t=for	!	!	!	!	!	!	!	!
.	.	4r	.	4r	.	4ff\	f	.	.	.	.	4r	.	4r	.
=17	=17	=17	=17	=17	=17	=17	=17	=17	=17	=17	=17	=17	=17	=17	=17
!	!LO:DY:b:t=for	!	!LO:DY:b:t=for.	!	!LO:DY:b:t=for	!	!	!	!LO:DY:b:t=for	!	!LO:DY:b:t=for	!	!LO:DY:b:t=for.	!	!LO:DY:b:t=for
2BB-/	f	(8B-\L	f	8d/L	f	(8ff\L	.	1B-	f	1b-	f	1dd	f	1ff	f
.	.	8d\)	.	8f/	.	8gg\	.	.	.	.	.	.	.	.	.
.	.	(8B-\	.	(8d/	.	8ff\)	.	.	.	.	.	.	.	.	.
.	.	8d\J)	.	8f/J)	.	8ee-'\J	.	.	.	.	.	.	.	.	.
*	*	*rep	*	*rep	*	*	*	*	*	*	*	*	*	*	*
4r	.	(8B-\L	.	8d/L	.	4dd'\	.	.	.	.	.	.	.	.	.
.	.	8d\)	.	8f/	.	.	.	.	.	.	.	.	.	.	.
4B-\	.	(8B-\	.	(8d/	.	4dd'\	.	.	.	.	.	.	.	.	.
.	.	8d\J)	.	8f/J)	.	.	.	.	.	.	.	.	.	.	.
*	*	*Xrep	*	*Xrep	*	*	*	*	*	*	*	*	*	*	*
=18	=18	=18	=18	=18	=18	=18	=18	=18	=18	=18	=18	=18	=18	=18	=18
2BB-/	.	(8B-\L	.	8d/L	.	(8dd\L	.	1B-	.	1b-	.	1b-	.	1dd	.
.	.	8d\)	.	8f/	.	8ee-\)	.	.	.	.	.	.	.	.	.
.	.	(8B-\	.	8d/	.	8dd'\	.	.	.	.	.	.	.	.	.
.	.	8d\J)	.	8f/J	.	8cc'\J	.	.	.	.	.	.	.	.	.
*	*	*rep	*	*rep	*	*	*	*	*	*	*	*	*	*	*
4r	.	(8B-\L	.	8d/L	.	4b-'\	.	.	.	.	.	.	.	.	.
.	.	8d\)	.	8f/	.	.	.	.	.	.	.	.	.	.	.
4B-\	.	(8B-\	.	8d/	.	4b-'\	.	.	.	.	.	.	.	.	.
.	.	8d\J)	.	8f/J	.	.	.	.	.	.	.	.	.	.	.
*	*	*Xrep	*	*Xrep	*	*	*	*	*	*	*	*	*	*	*
!	!	!LO:LB:g=original	!	!	!	!	!	!	!	!	!	!	!	!	!
=19	=19	=19	=19	=19	=19	=19	=19	=19	=19	=19	=19	=19	=19	=19	=19
2F\	.	4A/	.	8e-/L	.	4cc'\	.	2f/	.	4cc\	.	1cc	.	1ee-	.
.	.	.	.	8f/	.	.	.	.	.	.	.	.	.	.	.
.	.	4A/	.	8e-/	.	4cc'\	.	.	.	4cc\	.	.	.	.	.
.	.	.	.	8f/J	.	.	.	.	.	.	.	.	.	.	.
*	*	*	*	*rep	*	*	*	*	*	*	*	*	*	*	*
2FF/	.	4c/	.	8e-/L	.	4a'\	.	2r	.	4cc\	.	.	.	.	.
.	.	.	.	8f/	.	.	.	.	.	.	.	.	.	.	.
.	.	4c/	.	8e-/	.	4a'\	.	.	.	4cc\	.	.	.	.	.
.	.	.	.	8f/J	.	.	.	.	.	.	.	.	.	.	.
*	*	*	*	*Xrep	*	*	*	*	*	*	*	*	*	*	*
!	!	!	!	!LO:LB:g=original	!	!LO:LB:g=original	!	!	!	!	!	!	!	!LO:LB:g=original	!
=20	=20	=20	=20	=20	=20	=20	=20	=20	=20	=20	=20	=20	=20	=20	=20
2BB-/	.	(8B-/L	.	8d/L	.	(8b-\L	.	2d/	.	2b-\	.	4b-\	.	4dd\	.
.	.	8A/)	.	8f/	.	8a\	.	.	.	.	.	.	.	.	.
.	.	(8B-/	.	8d/	.	8b-\	.	.	.	.	.	4r	.	4r	.
.	.	8A/J)	.	8f/J	.	8cc\J)	.	.	.	.	.	.	.	.	.
*	*	*	*	*rep	*	*	*	*	*	*	*	*	*	*	*
8BB-/L	.	(8B-/L	.	8d/L	.	(8dd\L	.	2r	.	2r	.	2r	.	2r	.
(8AA/	.	8A/)	.	8f/	.	8cc\	.	.	.	.	.	.	.	.	.
8BB-/	.	(8B-/	.	8d/	.	8dd\	.	.	.	.	.	.	.	.	.
8C/J)	.	8A/J)	.	8f/J	.	8ee-\J)	.	.	.	.	.	.	.	.	.
*	*	*	*	*Xrep	*	*	*	*	*	*	*	*	*	*	*
=21	=21	=21	=21	=21	=21	=21	=21	=21	=21	=21	=21	=21	=21	=21	=21
2BB-/	.	(8B-\L	.	(8d/L	.	(8ff\L	.	1d	.	1b-	.	1dd	.	1ff	.
.	.	8d\)	.	8f/)	.	8gg\)	.	.	.	.	.	.	.	.	.
.	.	(8B-\	.	(8d/	.	8ff'\	.	.	.	.	.	.	.	.	.
.	.	8d\J)	.	8f/J)	.	8ee-'\J	.	.	.	.	.	.	.	.	.
*	*	*rep	*	*rep	*	*	*	*	*	*	*	*	*	*	*
4r	.	(8B-\L	.	(8d/L	.	4dd'\	.	.	.	.	.	.	.	.	.
.	.	8d\)	.	8f/)	.	.	.	.	.	.	.	.	.	.	.
4B-\	.	(8B-\	.	(8d/	.	4dd'\	.	.	.	.	.	.	.	.	.
.	.	8d\J)	.	8f/J)	.	.	.	.	.	.	.	.	.	.	.
*	*	*Xrep	*	*Xrep	*	*	*	*	*	*	*	*	*	*	*
=22	=22	=22	=22	=22	=22	=22	=22	=22	=22	=22	=22	=22	=22	=22	=22
2BB-/	.	(8B-\L	.	8d/L	.	(8dd\L	.	1d	.	1b-	.	1b-	.	1dd	.
.	.	8d\)	.	8f/	.	8ee-\)	.	.	.	.	.	.	.	.	.
.	.	(8B-\	.	8d/	.	8dd'\	.	.	.	.	.	.	.	.	.
.	.	8d\J)	.	8f/J	.	8cc'\J	.	.	.	.	.	.	.	.	.
*	*	*rep	*	*rep	*	*	*	*	*	*	*	*	*	*	*
4r	.	(8B-\L	.	8d/L	.	4b-'\	.	.	.	.	.	.	.	.	.
.	.	8d\)	.	8f/	.	.	.	.	.	.	.	.	.	.	.
4BB-/	.	(8B-\	.	8d/	.	4b-'\	.	.	.	.	.	.	.	.	.
.	.	8d\J)	.	8f/J	.	.	.	.	.	.	.	.	.	.	.
*	*	*Xrep	*	*Xrep	*	*	*	*	*	*	*	*	*	*	*
=23	=23	=23	=23	=23	=23	=23	=23	=23	=23	=23	=23	=23	=23	=23	=23
2F\	.	4A'/	.	(8e-/L	.	4cc'\	.	4f/	.	4cc\	.	1cc	.	1ee-	.
.	.	.	.	8f/)	.	.	.	.	.	.	.	.	.	.	.
.	.	4A'/	.	(8e-/	.	4cc'\	.	4f/	.	4cc\	.	.	.	.	.
.	.	.	.	8f/J)	.	.	.	.	.	.	.	.	.	.	.
2FF/	.	4c'/	.	(8e-/L	.	4a'\	.	4f/	.	4cc\	.	.	.	.	.
.	.	.	.	8f/)	.	.	.	.	.	.	.	.	.	.	.
.	.	4c'/	.	(8e-/	.	4a'\	.	4f/	.	4cc\	.	.	.	.	.
.	.	.	.	8f/J)	.	.	.	.	.	.	.	.	.	.	.
=	=	=	=	=	=	=	=	=	=	=	=	=	=	=	=
!LO:TX:a:t=fine.	!	!LO:TX:b:t=fine	!	!	!	!	!	!LO:TX:b:t=fine.	!	!	!	!	!	!	!
!LO:TX:b:t=fine.	!	!	!	!	!	!	!	!	!	!	!	!	!	!	!
2BB-;;/	.	2.B-;;/	.	2d/;;	.	2b-;;\	.	2d;;/	.	2b-;\	.	4b-;;\	.	4dd;;\	.
.	.	.	.	.	.	.	.	.	.	.	.	4r	.	4r	.
!	!	!	!	!LO:TX:b:t=fine.	!	!LO:TX:b:t=fine.	!	!	!	!LO:TX:b:t=fine	!	!LO:TX:b:t=fine	!	!LO:TX:a:t=fine	!
4r	.	.	.	4r	.	4r	.	4r	.	4r	.	4r	.	4r	.
=24:|!|:	=24:|!|:	=24:|!|:	=24:|!|:	=24:|!|:	=24:|!|:	=24:|!|:	=24:|!|:	=24:|!|:	=24:|!|:	=24:|!|:	=24:|!|:	=24:|!|:	=24:|!|:	=24:|!|:	=24:|!|:
.	.	.	.	.	.	8qqgg/	.	.	.	.	.	.	.	.	.
!	!	!	!	!	!	!	!LO:DY:b:t=pia.	!	!	!	!	!	!	!	!
4r	.	4r	.	4r	.	16gg\LL	p	4r	.	4r	.	4r	.	4r	.
.	.	.	.	.	.	(16ff#X\	.	.	.	.	.	.	.	.	.
.	.	.	.	.	.	16gg\	.	.	.	.	.	.	.	.	.
.	.	.	.	.	.	16aa\JJ)	.	.	.	.	.	.	.	.	.
!LO:LB:g=original	!	!	!	!	!	!	!	!	!	!	!	!	!	!	!
=25	=25	=25	=25	=25	=25	=25	=25	=25	=25	=25	=25	=25	=25	=25	=25
!	!	!	!	!	!	!	!	!	!	!	!	!LO:TX:a:t=8	!	!	!
1r	.	2r	.	2r	.	4bb-\	.	1r	.	1r	.	1r	.	1r	.
.	.	.	.	.	.	4gg\	.	.	.	.	.	.	.	.	.
.	.	4r	.	4r	.	4gg\	.	.	.	.	.	.	.	.	.
!	!	!	!LO:DY:b:t=po	!	!LO:DY:b:t=po.	!	!	!	!	!	!	!	!	!	!
.	.	16g\LL	p	(16b-\LL	p	4gg\	.	.	.	.	.	.	.	.	.
.	.	(16f#X\	.	16a\	.	.	.	.	.	.	.	.	.	.	.
.	.	16g\)	.	16b-\	.	.	.	.	.	.	.	.	.	.	.
.	.	16a\JJ	.	16cc\JJ)	.	.	.	.	.	.	.	.	.	.	.
!	!	!LO:LB:g=original	!	!	!	!	!	!	!	!	!	!	!	!	!
=26	=26	=26	=26	=26	=26	=26	=26	=26	=26	=26	=26	=26	=26	=26	=26
1r	.	4b-'\	.	4dd'\	.	2.ggT\	.	1r	.	1r	.	1r	.	1r	.
.	.	4b-'\	.	4dd'\	.	.	.	.	.	.	.	.	.	.	.
.	.	(4a\	.	(4cc\	.	.	.	.	.	.	.	.	.	.	.
.	.	4g\)	.	4b-\)	.	(8ff#X\L	.	.	.	.	.	.	.	.	.
.	.	.	.	.	.	8gg\J)	.	.	.	.	.	.	.	.	.
!	!	!	!	!LO:PB:g=original	!	!	!	!	!	!	!	!	!	!	!
=27	=27	=27	=27	=27	=27	=27	=27	=27	=27	=27	=27	=27	=27	=27	=27
1r	.	4f#X\	.	4a\	.	(4aa\	.	1r	.	1r	.	1r	.	1r	.
.	.	4r	.	4r	.	4dd\)	.	.	.	.	.	.	.	.	.
.	.	4r	.	4r	.	4dd'\	.	.	.	.	.	.	.	.	.
.	.	(16f#\LL	.	(16a\LL	.	4dd'\	.	.	.	.	.	.	.	.	.
.	.	16e-\	.	16g\	.	.	.	.	.	.	.	.	.	.	.
.	.	16f#\	.	16a\	.	.	.	.	.	.	.	.	.	.	.
.	.	16g\JJ)	.	16b-\JJ)	.	.	.	.	.	.	.	.	.	.	.
=28	=28	=28	=28	=28	=28	=28	=28	=28	=28	=28	=28	=28	=28	=28	=28
1r	.	4a'\	.	4cc'\	.	2.dd\	.	1r	.	1r	.	1r	.	1r	.
.	.	4a'\	.	4cc'\	.	.	.	.	.	.	.	.	.	.	.
.	.	(4g\	.	(4b-\	.	.	.	.	.	.	.	.	.	.	.
.	.	4f#X\)	.	4a\)	.	4ccT\	.	.	.	.	.	.	.	.	.
!	!	!	!	!	!	!LO:LB:g=original	!	!	!	!	!	!	!	!	!
=29	=29	=29	=29	=29	=29	=29	=29	=29	=29	=29	=29	=29	=29	=29	=29
!	!	!	!	!	!	!LO:TX:t=P:problem=od skanu 0004	!	!	!	!	!	!	!	!	!
1r	.	4g\	.	4g/	.	(4b-\	.	1r	.	1r	.	1r	.	1r	.
.	.	4r	.	4r	.	4g\)	.	.	.	.	.	.	.	.	.
!	!	!	!	!	!	!LO:TX:a:t=|	!	!	!	!	!	!	!	!	!
.	.	4r	.	4r	.	4g|\	.	.	.	.	.	.	.	.	.
!	!	!	!	!	!	!LO:TX:a:t=|	!	!	!	!	!	!	!	!	!
.	.	(16G/LL	.	(16B-/LL	.	4g|\	.	.	.	.	.	.	.	.	.
.	.	16F#X/	.	16A/)	.	.	.	.	.	.	.	.	.	.	.
.	.	16G/)	.	16B-'/	.	.	.	.	.	.	.	.	.	.	.
.	.	16A/JJ	.	16c'/JJ	.	.	.	.	.	.	.	.	.	.	.
=30	=30	=30	=30	=30	=30	=30	=30	=30	=30	=30	=30	=30	=30	=30	=30
!	!	!	!	!	!	!LO:TX:a:B:t=t	!	!	!	!	!	!	!	!	!
1r	.	4B-'/	.	4d'/	.	2.g/	.	1r	.	1r	.	1r	.	1r	.
.	.	4B-'/	.	4d'/	.	.	.	.	.	.	.	.	.	.	.
.	.	(4A/	.	(4c/	.	.	.	.	.	.	.	.	.	.	.
.	.	4G/)	.	4B-/)	.	(8f#X/L	.	.	.	.	.	.	.	.	.
.	.	.	.	.	.	8g/J)	.	.	.	.	.	.	.	.	.
=31	=31	=31	=31	=31	=31	=31	=31	=31	=31	=31	=31	=31	=31	=31	=31
1r	.	4F#X/	.	4A/	.	(4a/	.	1r	.	1r	.	1r	.	1r	.
.	.	4r	.	4r	.	4d/)	.	.	.	.	.	.	.	.	.
.	.	4r	.	4r	.	4d'/	.	.	.	.	.	.	.	.	.
.	.	16F#/LL	.	(16A/LL	.	4d'/	.	.	.	.	.	.	.	.	.
.	.	(16E-/	.	16G/)	.	.	.	.	.	.	.	.	.	.	.
.	.	16F#/	.	16A/	.	.	.	.	.	.	.	.	.	.	.
.	.	16G/JJ)	.	16B-/JJ	.	.	.	.	.	.	.	.	.	.	.
!	!	!LO:LB:g=original	!	!	!	!	!	!	!	!	!	!	!	!	!
=32	=32	=32	=32	=32	=32	=32	=32	=32	=32	=32	=32	=32	=32	=32	=32
1r	.	4A'/	.	4c'/	.	2.d/	.	1r	.	1r	.	1r	.	1r	.
.	.	4A'/	.	4c'/	.	.	.	.	.	.	.	.	.	.	.
.	.	(4G/	.	(4B-/	.	.	.	.	.	.	.	.	.	.	.
.	.	4F#X/)	.	4A/)	.	4c/	.	.	.	.	.	.	.	.	.
!	!	!	!	!	!	!	!	!	!	!	!	!LO:LB:g=original	!	!	!
=33	=33	=33	=33	=33	=33	=33	=33	=33	=33	=33	=33	=33	=33	=33	=33
!	!	!	!	!	!	!	!	!	!	!	!	!LO:TX:a:t=9	!	!	!
1r	.	4G/	.	4G/	.	(4B-/	.	1r	.	1r	.	1r	.	1r	.
.	.	4r	.	4r	.	4g/)	.	.	.	.	.	.	.	.	.
.	.	2r	.	2r	.	4g'/	.	.	.	.	.	.	.	.	.
.	.	.	.	.	.	4g'/	.	.	.	.	.	.	.	.	.
=34	=34	=34	=34	=34	=34	=34	=34	=34	=34	=34	=34	=34	=34	=34	=34
1r	.	1r	.	1r	.	4g'\	.	1r	.	1r	.	1r	.	1r	.
.	.	.	.	.	.	8a'\L	.	.	.	.	.	.	.	.	.
.	.	.	.	.	.	8b-'\J	.	.	.	.	.	.	.	.	.
.	.	.	.	.	.	8cc'\L	.	.	.	.	.	.	.	.	.
.	.	.	.	.	.	8dd'\	.	.	.	.	.	.	.	.	.
.	.	.	.	.	.	8ee-'\	.	.	.	.	.	.	.	.	.
.	.	.	.	.	.	8ff#X'\J	.	.	.	.	.	.	.	.	.
=35	=35	=35	=35	=35	=35	=35	=35	=35	=35	=35	=35	=35	=35	=35	=35
1r	.	1r	.	1r	.	8gg'\L	.	1r	.	1r	.	1r	.	1r	.
.	.	.	.	.	.	8b-'\	.	.	.	.	.	.	.	.	.
.	.	.	.	.	.	8cc'\	.	.	.	.	.	.	.	.	.
.	.	.	.	.	.	8dd'\J	.	.	.	.	.	.	.	.	.
.	.	.	.	.	.	8ee-'\L	.	.	.	.	.	.	.	.	.
.	.	.	.	.	.	8ff#X'\	.	.	.	.	.	.	.	.	.
.	.	.	.	.	.	8gg'\	.	.	.	.	.	.	.	.	.
.	.	.	.	.	.	8aa'\J	.	.	.	.	.	.	.	.	.
=36	=36	=36	=36	=36	=36	=36	=36	=36	=36	=36	=36	=36	=36	=36	=36
1r	.	1r	.	1r	.	8bb-'\L	.	1r	.	1r	.	1r	.	1r	.
.	.	.	.	.	.	8dd'\	.	.	.	.	.	.	.	.	.
.	.	.	.	.	.	8ee-'\	.	.	.	.	.	.	.	.	.
.	.	.	.	.	.	8ff#X'\J	.	.	.	.	.	.	.	.	.
.	.	.	.	.	.	8gg'\L	.	.	.	.	.	.	.	.	.
.	.	.	.	.	.	8aa'\	.	.	.	.	.	.	.	.	.
.	.	.	.	.	.	8bb-'\	.	.	.	.	.	.	.	.	.
.	.	.	.	.	.	8ccc'\J	.	.	.	.	.	.	.	.	.
!	!	!LO:PB:g=original	!	!	!	!	!	!	!	!	!	!	!	!	!
=37	=37	=37	=37	=37	=37	=37	=37	=37	=37	=37	=37	=37	=37	=37	=37
!	!	!	!	!	!	!	!LO:DY:b:t=for	!	!	!	!	!	!	!	!
2r	.	2r	.	2r	.	1ddd	f	1r	.	1r	.	1r	.	1r	.
4r	.	4r	.	4r	.	.	.	.	.	.	.	.	.	.	.
!	!	!	!LO:DY:b:t=for	!	!LO:DY:b:t=for	!	!	!	!	!	!	!	!	!	!
4d\	.	4d\	f	[4ff\	f	.	.	.	.	.	.	.	.	.	.
!	!	!	!	!LO:LB:g=original	!	!LO:LB:g=original	!	!	!	!	!	!	!	!	!
=38	=38	=38	=38	=38	=38	=38	=38	=38	=38	=38	=38	=38	=38	=38	=38
!	!LO:DY:b:t=for	!	!	!	!	!	!	!	!	!	!	!	!	!	!
4d\	f	4d\	.	(4ff\]	.	1ccc	.	1r	.	1r	.	1r	.	1r	.
8c\L	.	8c/L	.	4dd\)	.	.	.	.	.	.	.	.	.	.	.
8B-\J	.	8B-/J	.	.	.	.	.	.	.	.	.	.	.	.	.
8A\L	.	8A/L	.	[2ee-\	.	.	.	.	.	.	.	.	.	.	.
8G\	.	8G/	.	.	.	.	.	.	.	.	.	.	.	.	.
8A\	.	8A/	.	.	.	.	.	.	.	.	.	.	.	.	.
8B-\J	.	8B-/J	.	.	.	.	.	.	.	.	.	.	.	.	.
=39	=39	=39	=39	=39	=39	=39	=39	=39	=39	=39	=39	=39	=39	=39	=39
4c\	.	4c/	.	4ee-\]	.	1bb-	.	1r	.	1r	.	1r	.	1r	.
8B-\L	.	8B-/L	.	4cc\	.	.	.	.	.	.	.	.	.	.	.
8A\J	.	8A/J	.	.	.	.	.	.	.	.	.	.	.	.	.
8G\L	.	8G/L	.	[2dd\	.	.	.	.	.	.	.	.	.	.	.
8F\	.	8F/	.	.	.	.	.	.	.	.	.	.	.	.	.
8G\	.	8G/	.	.	.	.	.	.	.	.	.	.	.	.	.
8A\J	.	8A/J	.	.	.	.	.	.	.	.	.	.	.	.	.
=40	=40	=40	=40	=40	=40	=40	=40	=40	=40	=40	=40	=40	=40	=40	=40
4B-\	.	4B-/	.	4dd\]	.	1aa	.	1r	.	1r	.	1r	.	1r	.
8A\L	.	8A/L	.	4b-\	.	.	.	.	.	.	.	.	.	.	.
8G\J	.	8G/J	.	.	.	.	.	.	.	.	.	.	.	.	.
8F#X\L	.	8F#X/L	.	[2cc\	.	.	.	.	.	.	.	.	.	.	.
8E-\	.	8E-/	.	.	.	.	.	.	.	.	.	.	.	.	.
8F#\	.	8F#/	.	.	.	.	.	.	.	.	.	.	.	.	.
8G\J	.	8G/J	.	.	.	.	.	.	.	.	.	.	.	.	.
=41	=41	=41	=41	=41	=41	=41	=41	=41	=41	=41	=41	=41	=41	=41	=41
4A\	.	4A/	.	4cc\]	.	1gg	.	1r	.	1r	.	1r	.	1r	.
8G\L	.	8G/L	.	4a\	.	.	.	.	.	.	.	.	.	.	.
8F#X\J	.	8F#X/J	.	.	.	.	.	.	.	.	.	.	.	.	.
8G\L	.	8G/L	.	2b-\	.	.	.	.	.	.	.	.	.	.	.
8A\	.	8A/	.	.	.	.	.	.	.	.	.	.	.	.	.
8B-\	.	8B-/	.	.	.	.	.	.	.	.	.	.	.	.	.
8c#X\J	.	8c#X/J	.	.	.	.	.	.	.	.	.	.	.	.	.
!	!	!	!	!	!	!	!	!	!	!LO:LB:g=original	!	!	!	!	!
=	=	=	=	=	=	=	=	=	=	=	=	=	=	=	=
2d\	.	2d\	.	2a\	.	2ff#X\	.	2r	.	2r	.	2r	.	2r	.
4r	.	4r	.	4r	.	4r	.	4r	.	4r	.	4r	.	4r	.
=42:|!|:	=42:|!|:	=42:|!|:	=42:|!|:	=42:|!|:	=42:|!|:	=42:|!|:	=42:|!|:	=42:|!|:	=42:|!|:	=42:|!|:	=42:|!|:	=42:|!|:	=42:|!|:	=42:|!|:	=42:|!|:
.	.	.	.	.	.	8qgg/	.	.	.	.	.	.	.	.	.
4r	.	4r	.	4r	.	(16ff#X\LL	.	4r	.	4r	.	4r	.	4r	.
!	!	!	!	!	!	!	!LO:DY:b:t=pia.	!	!	!	!	!	!	!	!
.	.	.	.	.	.	16ee-\	p	.	.	.	.	.	.	.	.
.	.	.	.	.	.	16ff#\)	.	.	.	.	.	.	.	.	.
.	.	.	.	.	.	16gg\JJ	.	.	.	.	.	.	.	.	.
!	!	!	!	!	!	!	!	!LO:LB:g=original	!	!	!	!	!	!	!
=43	=43	=43	=43	=43	=43	=43	=43	=43	=43	=43	=43	=43	=43	=43	=43
!	!	!	!LO:DY:b:t=for	!	!LO:DY:b:t=for&colon;	!	!	!	!	!	!	!	!LO:DY:b:t=for	!	!LO:DY:b:t=for.
8F#X\L	.	1A	f	1d	f	(4aa\	.	1d	.	1dd	.	1a	f	1ff#X	f
8G\	.	.	.	.	.	.	.	.	.	.	.	.	.	.	.
8A\	.	.	.	.	.	4cc\)	.	.	.	.	.	.	.	.	.
8B-\J	.	.	.	.	.	.	.	.	.	.	.	.	.	.	.
8c\L	.	.	.	.	.	4cc'\	.	.	.	.	.	.	.	.	.
8A\	.	.	.	.	.	.	.	.	.	.	.	.	.	.	.
8G\	.	.	.	.	.	4cc'\	.	.	.	.	.	.	.	.	.
8F#\J	.	.	.	.	.	.	.	.	.	.	.	.	.	.	.
!LO:LB:g=original	!	!LO:LB:g=original	!	!	!	!	!	!	!	!	!	!	!	!	!
=44	=44	=44	=44	=44	=44	=44	=44	=44	=44	=44	=44	=44	=44	=44	=44
8G\L	.	1B-	.	1d	.	(4cc\	.	1d	.	1dd	.	1b-	.	1gg	.
8A\	.	.	.	.	.	.	.	.	.	.	.	.	.	.	.
8B-\	.	.	.	.	.	4b-\)	.	.	.	.	.	.	.	.	.
8c\J	.	.	.	.	.	.	.	.	.	.	.	.	.	.	.
8d\L	.	.	.	.	.	4r	.	.	.	.	.	.	.	.	.
8B-\	.	.	.	.	.	.	.	.	.	.	.	.	.	.	.
8A\	.	.	.	.	.	4ggT\	.	.	.	.	.	.	.	.	.
8G\J	.	.	.	.	.	.	.	.	.	.	.	.	.	.	.
=45	=45	=45	=45	=45	=45	=45	=45	=45	=45	=45	=45	=45	=45	=45	=45
8F#X\L	.	1A	.	1d	.	(4aa\	.	1d	.	1dd	.	1a	.	1ff#X	.
8G\	.	.	.	.	.	.	.	.	.	.	.	.	.	.	.
8A\	.	.	.	.	.	4cc\)	.	.	.	.	.	.	.	.	.
8B-\J	.	.	.	.	.	.	.	.	.	.	.	.	.	.	.
8c\L	.	.	.	.	.	4cc'\	.	.	.	.	.	.	.	.	.
8A\	.	.	.	.	.	.	.	.	.	.	.	.	.	.	.
8G\	.	.	.	.	.	4cc'\	.	.	.	.	.	.	.	.	.
8F#\J	.	.	.	.	.	.	.	.	.	.	.	.	.	.	.
=46	=46	=46	=46	=46	=46	=46	=46	=46	=46	=46	=46	=46	=46	=46	=46
8G\L	.	1B-	.	1d	.	(4cc\	.	1d	.	1dd	.	1b-	.	1gg	.
8A\	.	.	.	.	.	.	.	.	.	.	.	.	.	.	.
8B-\	.	.	.	.	.	4b-\)	.	.	.	.	.	.	.	.	.
8c\J	.	.	.	.	.	.	.	.	.	.	.	.	.	.	.
8d\L	.	.	.	.	.	4r	.	.	.	.	.	.	.	.	.
8B-\	.	.	.	.	.	.	.	.	.	.	.	.	.	.	.
8A\	.	.	.	.	.	4gg\	.	.	.	.	.	.	.	.	.
8G\J	.	.	.	.	.	.	.	.	.	.	.	.	.	.	.
=47	=47	=47	=47	=47	=47	=47	=47	=47	=47	=47	=47	=47	=47	=47	=47
!	!	!	!	!	!	!	!LO:DY:b:t=for..	!	!	!	!	!	!	!	!
4A\	.	2.A/	.	1d	.	(2gg\	f	1r	.	1r	.	1r	.	1r	.
8B-\L	.	.	.	.	.	.	.	.	.	.	.	.	.	.	.
8c\J	.	.	.	.	.	.	.	.	.	.	.	.	.	.	.
8d\L	.	.	.	.	.	2ff#X\)	.	.	.	.	.	.	.	.	.
8c\	.	.	.	.	.	.	.	.	.	.	.	.	.	.	.
8B-\	.	4d\	.	.	.	.	.	.	.	.	.	.	.	.	.
8A\J	.	.	.	.	.	.	.	.	.	.	.	.	.	.	.
=48	=48	=48	=48	=48	=48	=48	=48	=48	=48	=48	=48	=48	=48	=48	=48
4B-\	.	2.B-/	.	1e-	.	(2aa\	.	1r	.	1r	.	1r	.	1r	.
8c\L	.	.	.	.	.	.	.	.	.	.	.	.	.	.	.
8d\J	.	.	.	.	.	.	.	.	.	.	.	.	.	.	.
8e-\L	.	.	.	.	.	2gg\)	.	.	.	.	.	.	.	.	.
8d\	.	.	.	.	.	.	.	.	.	.	.	.	.	.	.
8c\	.	4e-\	.	.	.	.	.	.	.	.	.	.	.	.	.
8B-\J	.	.	.	.	.	.	.	.	.	.	.	.	.	.	.
!	!	!	!	!	!	!LO:LB:g=original	!	!	!	!	!	!	!	!	!
=49	=49	=49	=49	=49	=49	=49	=49	=49	=49	=49	=49	=49	=49	=49	=49
4c\	.	2.c\	.	1f	.	(2bb-\	.	1r	.	1r	.	1r	.	1r	.
8d\L	.	.	.	.	.	.	.	.	.	.	.	.	.	.	.
8e-\J	.	.	.	.	.	.	.	.	.	.	.	.	.	.	.
8f\L	.	.	.	.	.	2aa\)	.	.	.	.	.	.	.	.	.
8e-\	.	.	.	.	.	.	.	.	.	.	.	.	.	.	.
8d\	.	4f\	.	.	.	.	.	.	.	.	.	.	.	.	.
8c\J	.	.	.	.	.	.	.	.	.	.	.	.	.	.	.
!LO:LB:g=original	!	!	!	!	!	!	!	!	!	!	!	!	!	!	!
=50	=50	=50	=50	=50	=50	=50	=50	=50	=50	=50	=50	=50	=50	=50	=50
4d\	.	2.d\	.	1g	.	(2ccc\	.	1r	.	1r	.	1r	.	1r	.
8e-\L	.	.	.	.	.	.	.	.	.	.	.	.	.	.	.
8f\J	.	.	.	.	.	.	.	.	.	.	.	.	.	.	.
8g\L	.	.	.	.	.	2bb-\)	.	.	.	.	.	.	.	.	.
8f\	.	.	.	.	.	.	.	.	.	.	.	.	.	.	.
8e-\	.	4g\	.	.	.	.	.	.	.	.	.	.	.	.	.
8d\J	.	.	.	.	.	.	.	.	.	.	.	.	.	.	.
!	!	!	!	!LO:LB:g=original	!	!	!	!	!	!	!	!	!	!	!
=51	=51	=51	=51	=51	=51	=51	=51	=51	=51	=51	=51	=51	=51	=51	=51
8f\L	.	2e-\	.	2a\	.	(2aa\	.	1r	.	1r	.	1r	.	1r	.
8e-\	.	.	.	.	.	.	.	.	.	.	.	.	.	.	.
8d\	.	.	.	.	.	.	.	.	.	.	.	.	.	.	.
8c\J	.	.	.	.	.	.	.	.	.	.	.	.	.	.	.
8e-\L	.	2c\	.	2b-\	.	2gg\)	.	.	.	.	.	.	.	.	.
8d\	.	.	.	.	.	.	.	.	.	.	.	.	.	.	.
8c\	.	.	.	.	.	.	.	.	.	.	.	.	.	.	.
8B-\J	.	.	.	.	.	.	.	.	.	.	.	.	.	.	.
!	!	!	!	!	!	!	!	!	!	!	!	!	!	!LO:LB:g=original	!
=52	=52	=52	=52	=52	=52	=52	=52	=52	=52	=52	=52	=52	=52	=52	=52
8A\L	.	2A/	.	1cc	.	1ff#X	.	1cc	.	1cc	.	1cc	.	1ee-X	.
8G\	.	.	.	.	.	.	.	.	.	.	.	.	.	.	.
8A\	.	.	.	.	.	.	.	.	.	.	.	.	.	.	.
8B-\J	.	.	.	.	.	.	.	.	.	.	.	.	.	.	.
8c\L	.	2a\	.	.	.	.	.	.	.	.	.	.	.	.	.
8B-\	.	.	.	.	.	.	.	.	.	.	.	.	.	.	.
8c\	.	.	.	.	.	.	.	.	.	.	.	.	.	.	.
8d\J	.	.	.	.	.	.	.	.	.	.	.	.	.	.	.
=53	=53	=53	=53	=53	=53	=53	=53	=53	=53	=53	=53	=53	=53	=53	=53
1e-X;;	.	1a;;	.	1cc;;	.	1ff#X;	.	1cc;	.	1cc;	.	1cc;;	.	1ee-;	.
=54	=54	=54	=54	=54	=54	=54	=54	=54	=54	=54	=54	=54	=54	=54	=54
!	!	!	!	!	!	!	!LO:DY:b:t=pia	!	!	!	!	!	!	!	!
1r	.	1r	.	2r	.	4gg\	p	1r	.	1r	.	1r	.	1r	.
.	.	.	.	.	.	4ddt\	.	.	.	.	.	.	.	.	.
.	.	.	.	4r	.	4ee-\	.	.	.	.	.	.	.	.	.
!	!	!	!	!	!LO:DY:b:t=pia.	!	!	!	!	!	!	!	!	!	!
.	.	.	.	4g/	p	4bnt\	.	.	.	.	.	.	.	.	.
=55	=55	=55	=55	=55	=55	=55	=55	=55	=55	=55	=55	=55	=55	=55	=55
!	!	!	!LO:DY:b:t=po	!	!	!	!	!	!	!	!	!	!	!	!
1r	.	2e-\	p	4cc\	.	2.cc\	.	1r	.	1r	.	1r	.	1r	.
.	.	.	.	4gT/	.	.	.	.	.	.	.	.	.	.	.
.	.	4f\	.	4a/	.	.	.	.	.	.	.	.	.	.	.
.	.	4g\	.	4ent/	.	4gg\	.	.	.	.	.	.	.	.	.
=56	=56	=56	=56	=56	=56	=56	=56	=56	=56	=56	=56	=56	=56	=56	=56
1r	.	2a\	.	2.f/	.	4ff\	.	1r	.	1r	.	1r	.	1r	.
.	.	.	.	.	.	4cc#Xt\	.	.	.	.	.	.	.	.	.
.	.	2r	.	.	.	4dd\	.	.	.	.	.	.	.	.	.
.	.	.	.	4cc\	.	4at\	.	.	.	.	.	.	.	.	.
=57	=57	=57	=57	=57	=57	=57	=57	=57	=57	=57	=57	=57	=57	=57	=57
1r	.	2d\	.	4b-\	.	2.b-\	.	1r	.	1r	.	1r	.	1r	.
.	.	.	.	4fT/	.	.	.	.	.	.	.	.	.	.	.
.	.	4e-\	.	4g/	.	.	.	.	.	.	.	.	.	.	.
.	.	4f\	.	4dt/	.	4ff\	.	.	.	.	.	.	.	.	.
!	!	!LO:LB:g=original	!	!	!	!	!	!	!	!	!	!	!	!	!
=58	=58	=58	=58	=58	=58	=58	=58	=58	=58	=58	=58	=58	=58	=58	=58
1r	.	2g\	.	2.e-/	.	4ee-\	.	1r	.	1r	.	1r	.	1r	.
.	.	.	.	.	.	4b-T\	.	.	.	.	.	.	.	.	.
.	.	2r	.	.	.	4cc\	.	.	.	.	.	.	.	.	.
.	.	.	.	4b-/	.	4gT\	.	.	.	.	.	.	.	.	.
=59	=59	=59	=59	=59	=59	=59	=59	=59	=59	=59	=59	=59	=59	=59	=59
1r	.	2c\	.	4a/	.	2.a\	.	1r	.	1r	.	1r	.	1r	.
.	.	.	.	4ent/	.	.	.	.	.	.	.	.	.	.	.
.	.	4d\	.	4f#X/	.	.	.	.	.	.	.	.	.	.	.
.	.	4e-\	.	4c#Xt/	.	4ee-\	.	.	.	.	.	.	.	.	.
=60	=60	=60	=60	=60	=60	=60	=60	=60	=60	=60	=60	=60	=60	=60	=60
1r	.	2f#X\	.	2.d/	.	4dd\	.	1r	.	1r	.	1r	.	1r	.
.	.	.	.	.	.	4at\	.	.	.	.	.	.	.	.	.
!	!	!	!	!	!	!LO:LB:g=original	!	!	!	!	!	!	!	!	!
.	.	2r	.	.	.	4b-\	.	.	.	.	.	.	.	.	.
.	.	.	.	4a/	.	4f#Xt/	.	.	.	.	.	.	.	.	.
=61	=61	=61	=61	=61	=61	=61	=61	=61	=61	=61	=61	=61	=61	=61	=61
1r	.	4B-/	.	4g/	.	4g'/	.	1r	.	1r	.	1r	.	1r	.
.	.	4r	.	4r	.	8a'/L	.	.	.	.	.	.	.	.	.
.	.	.	.	.	.	8b-'/J	.	.	.	.	.	.	.	.	.
.	.	2r	.	2r	.	8cc'\L	.	.	.	.	.	.	.	.	.
.	.	.	.	.	.	8dd'\	.	.	.	.	.	.	.	.	.
.	.	.	.	.	.	8ee-'\	.	.	.	.	.	.	.	.	.
.	.	.	.	.	.	8ff#X'\J	.	.	.	.	.	.	.	.	.
=62	=62	=62	=62	=62	=62	=62	=62	=62	=62	=62	=62	=62	=62	=62	=62
1r	.	1r	.	1r	.	8gg'\L	.	1r	.	1r	.	1r	.	1r	.
.	.	.	.	.	.	8b-'\	.	.	.	.	.	.	.	.	.
.	.	.	.	.	.	8cc'\	.	.	.	.	.	.	.	.	.
.	.	.	.	.	.	8dd'\J	.	.	.	.	.	.	.	.	.
.	.	.	.	.	.	8ee-'\L	.	.	.	.	.	.	.	.	.
.	.	.	.	.	.	8ff#X'\	.	.	.	.	.	.	.	.	.
.	.	.	.	.	.	8gg'\	.	.	.	.	.	.	.	.	.
.	.	.	.	.	.	8aa'\J	.	.	.	.	.	.	.	.	.
=63	=63	=63	=63	=63	=63	=63	=63	=63	=63	=63	=63	=63	=63	=63	=63
1r	.	1r	.	1r	.	8bb-'\L	.	1r	.	1r	.	1r	.	1r	.
.	.	.	.	.	.	8dd'\	.	.	.	.	.	.	.	.	.
.	.	.	.	.	.	8ee-'\	.	.	.	.	.	.	.	.	.
.	.	.	.	.	.	8ff'\J	.	.	.	.	.	.	.	.	.
.	.	.	.	.	.	8gg'\L	.	.	.	.	.	.	.	.	.
.	.	.	.	.	.	8aa'\	.	.	.	.	.	.	.	.	.
.	.	.	.	.	.	8bb-'\	.	.	.	.	.	.	.	.	.
.	.	.	.	.	.	8ccc'\J	.	.	.	.	.	.	.	.	.
!	!	!	!	!LO:LB:g=original	!	!	!	!	!	!	!	!	!	!	!
=64	=64	=64	=64	=64	=64	=64	=64	=64	=64	=64	=64	=64	=64	=64	=64
!	!	!	!	!	!	!	!LO:DY:b:t=for&colon;	!	!	!	!	!	!	!	!
2r	.	2r	.	2r	.	1ddd	f	1r	.	1r	.	1r	.	1r	.
4r	.	4r	.	4r	.	.	.	.	.	.	.	.	.	.	.
!	!	!	!LO:DY:b:t=for	!	!LO:DY:b:t=for.	!	!	!	!	!	!	!	!	!	!
4d\	.	[4d\	f	[4ff\	f	.	.	.	.	.	.	.	.	.	.
=65	=65	=65	=65	=65	=65	=65	=65	=65	=65	=65	=65	=65	=65	=65	=65
4d\	.	4d\]	.	4ff\]	.	1ccc	.	1r	.	1r	.	1r	.	1r	.
8c\L	.	8c/L	.	4dd\	.	.	.	.	.	.	.	.	.	.	.
8B-\J	.	8B-/J	.	.	.	.	.	.	.	.	.	.	.	.	.
8A\L	.	8A/L	.	[2ee-\	.	.	.	.	.	.	.	.	.	.	.
8G\	.	8G/	.	.	.	.	.	.	.	.	.	.	.	.	.
8A\	.	8A/	.	.	.	.	.	.	.	.	.	.	.	.	.
8B-\J	.	8B-/J	.	.	.	.	.	.	.	.	.	.	.	.	.
=66	=66	=66	=66	=66	=66	=66	=66	=66	=66	=66	=66	=66	=66	=66	=66
*	*	*	*	*cue	*	*	*	*	*	*	*	*	*	*	*
!	!	!	!	!LO:N:vis=x	!	!	!	!	!	!	!	!	!	!	!
4c\	.	4c/	.	4ee-\]	.	1bb-	.	1r	.	1r	.	1r	.	1r	.
*	*	*	*	*Xcue	*	*	*	*	*	*	*	*	*	*	*
8B-\L	.	8B-/L	.	4cc\	.	.	.	.	.	.	.	.	.	.	.
8A\J	.	8A/J	.	.	.	.	.	.	.	.	.	.	.	.	.
8G\L	.	8G/L	.	[2dd\	.	.	.	.	.	.	.	.	.	.	.
8F\	.	8F/	.	.	.	.	.	.	.	.	.	.	.	.	.
8G\	.	8G/	.	.	.	.	.	.	.	.	.	.	.	.	.
8A\J	.	8A/J	.	.	.	.	.	.	.	.	.	.	.	.	.
!LO:LB:g=original	!	!	!	!	!	!	!	!	!	!	!	!	!	!	!
=67	=67	=67	=67	=67	=67	=67	=67	=67	=67	=67	=67	=67	=67	=67	=67
*	*	*	*	*cue	*	*	*	*	*	*	*	*	*	*	*
!	!	!	!	!LO:N:vis=x	!	!	!	!	!	!	!	!	!	!	!
4B-\	.	4B-/	.	4dd\]	.	1aa	.	1r	.	1r	.	1r	.	1r	.
*	*	*	*	*Xcue	*	*	*	*	*	*	*	*	*	*	*
8A\L	.	8A/L	.	4b-\	.	.	.	.	.	.	.	.	.	.	.
8G\J	.	8G/J	.	.	.	.	.	.	.	.	.	.	.	.	.
8F#X\L	.	8F#X/L	.	[2cc\	.	.	.	.	.	.	.	.	.	.	.
8E-\	.	8E-/	.	.	.	.	.	.	.	.	.	.	.	.	.
8F#\	.	8F#/	.	.	.	.	.	.	.	.	.	.	.	.	.
8G\J	.	8G/J	.	.	.	.	.	.	.	.	.	.	.	.	.
=68	=68	=68	=68	=68	=68	=68	=68	=68	=68	=68	=68	=68	=68	=68	=68
*	*	*	*	*cue	*	*	*	*	*	*	*	*	*	*	*
!	!	!	!	!LO:N:vis=x	!	!	!	!	!	!	!	!	!	!	!
4A\	.	4A/	.	4cc\]	.	1gg	.	1r	.	1r	.	1r	.	1r	.
*	*	*	*	*Xcue	*	*	*	*	*	*	*	*	*	*	*
8G\L	.	8G/L	.	4a\	.	.	.	.	.	.	.	.	.	.	.
8F#X\J	.	8F#X/J	.	.	.	.	.	.	.	.	.	.	.	.	.
!	!	!LO:LB:g=original	!	!	!	!	!	!	!	!	!	!	!	!	!
8G\L	.	8G/L	.	2b-\	.	.	.	.	.	.	.	.	.	.	.
8A\	.	8A/	.	.	.	.	.	.	.	.	.	.	.	.	.
8B-\	.	8B-/	.	.	.	.	.	.	.	.	.	.	.	.	.
8c\J	.	8c/J	.	.	.	.	.	.	.	.	.	.	.	.	.
=69	=69	=69	=69	=69	=69	=69	=69	=69	=69	=69	=69	=69	=69	=69	=69
*	*	*	*	*cue	*	*	*	*	*	*	*	*	*	*	*
!	!	!	!	!LO:N:vis=x	!	!	!	!	!	!	!	!	!	!	!
8d\L	.	8d\L	.	4b-\	.	1ff#X	.	1r	.	1r	.	1r	.	1r	.
8c\	.	8c\	.	.	.	.	.	.	.	.	.	.	.	.	.
*	*	*	*	*Xcue	*	*	*	*	*	*	*	*	*	*	*
8d\	.	8d\	.	4g/	.	.	.	.	.	.	.	.	.	.	.
8e-\J	.	8e-\J	.	.	.	.	.	.	.	.	.	.	.	.	.
8d\L	.	8d\L	.	4a/	.	.	.	.	.	.	.	.	.	.	.
8c\	.	8c\	.	.	.	.	.	.	.	.	.	.	.	.	.
8B-\	.	8B-\	.	4d/	.	.	.	.	.	.	.	.	.	.	.
8A\J	.	8A\J	.	.	.	.	.	.	.	.	.	.	.	.	.
=	=	=	=	=	=	=	=	=	=	=	=	=	=	=	=
2G\	.	2G/	.	2g/	.	2gg\	.	2r	.	2r	.	2r	.	2r	.
4r	.	4r	.	4r	.	4r	.	4r	.	4r	.	4r	.	4r	.
!	!	!	!	!	!	!	!	!	!	!	!	!LO:LB:g=original	!	!	!
=70:|!|:	=70:|!|:	=70:|!|:	=70:|!|:	=70:|!|:	=70:|!|:	=70:|!|:	=70:|!|:	=70:|!|:	=70:|!|:	=70:|!|:	=70:|!|:	=70:|!|:	=70:|!|:	=70:|!|:	=70:|!|:
!	!	!	!	!	!	!	!	!	!	!	!LO:DY:b:t=po&colon;	!LO:TX:b:t=dolce	!	!LO:TX:b:t=dolce	!
4r	.	4r	.	4r	.	4r	.	4r	.	4r	p	4dd\	.	4ff\	.
=71	=71	=71	=71	=71	=71	=71	=71	=71	=71	=71	=71	=71	=71	=71	=71
!	!	!	!	!	!	!	!	!	!LO:DY:b:t=po..	!	!	!	!	!	!
1r	.	1r	.	1r	.	1r	.	2B-/	p	2B-/	.	4.dd\	.	4.ff\	.
.	.	.	.	.	.	.	.	.	.	.	.	8cc\	.	8ee-\	.
.	.	.	.	.	.	.	.	2r	.	2r	.	4b-\	.	4dd\	.
.	.	.	.	.	.	.	.	.	.	.	.	4b-\	.	4dd\	.
=72	=72	=72	=72	=72	=72	=72	=72	=72	=72	=72	=72	=72	=72	=72	=72
1r	.	1r	.	1r	.	1r	.	2B-/	.	2B-/	.	4.b-'/	.	4.dd\	.
.	.	.	.	.	.	.	.	.	.	.	.	8f'/	.	8cc\	.
.	.	.	.	.	.	.	.	2r	.	2r	.	4d/	.	4b-\	.
.	.	.	.	.	.	.	.	.	.	.	.	4d/	.	4b-\	.
!	!	!	!	!	!	!	!	!	!	!LO:LB:g=original	!	!	!	!	!
=73	=73	=73	=73	=73	=73	=73	=73	=73	=73	=73	=73	=73	=73	=73	=73
1r	.	1r	.	1r	.	1r	.	2F/	.	1f	.	4e-'/	.	4cc'\	.
.	.	.	.	.	.	.	.	.	.	.	.	4d'/	.	4b-'\	.
.	.	.	.	.	.	.	.	2F/	.	.	.	(4e-/	.	4cc'\	.
.	.	.	.	.	.	.	.	.	.	.	.	4f/)	.	4dd'\	.
=74	=74	=74	=74	=74	=74	=74	=74	=74	=74	=74	=74	=74	=74	=74	=74
1r	.	1r	.	1r	.	1r	.	2B-/	.	2B-/	.	4d/	.	(8b-\L	.
.	.	.	.	.	.	.	.	.	.	.	.	.	.	8a\	.
.	.	.	.	.	.	.	.	.	.	.	.	4r	.	8b-\	.
.	.	.	.	.	.	.	.	.	.	.	.	.	.	8cc\J)	.
.	.	.	.	.	.	.	.	2r	.	2r	.	2r	.	(8dd\L	.
.	.	.	.	.	.	.	.	.	.	.	.	.	.	8cc\	.
.	.	.	.	.	.	.	.	.	.	.	.	.	.	8dd\	.
.	.	.	.	.	.	.	.	.	.	.	.	.	.	8ee-\J)	.
!	!	!	!	!	!	!LO:LB:g=original	!	!LO:LB:g=original	!	!	!	!	!	!	!
=75	=75	=75	=75	=75	=75	=75	=75	=75	=75	=75	=75	=75	=75	=75	=75
!	!LO:DY:b:t=for	!	!	!	!LO:DY:b:t=for.	!	!LO:DY:b:t=for&colon;	!	!	!	!	!	!LO:DY:b:t=for	!	!LO:DY:b:t=for
2BB-/	f	2B-\	.	4.d/	f	4.f/	f	4.dd\	.	4.ff\	.	4.dd\	f	4.ff\	f
.	.	.	.	8c/	.	8e-/	.	8cc\	.	8ee-\	.	8cc\	.	8ee-\	.
2r	.	2r	.	4B-/	.	4d/	.	4b-\	.	4dd\	.	4b-\	.	4dd\	.
.	.	.	.	4B-/	.	4d/	.	4r	.	4r	.	4b-\	.	4dd\	.
!	!	!	!	!	!	!	!	!	!	!	!	!LO:LB:g=original	!	!	!
=76	=76	=76	=76	=76	=76	=76	=76	=76	=76	=76	=76	=76	=76	=76	=76
2BB-/	.	2B-\	.	4.f/	.	4.d/	.	4.b-\	.	4.dd\	.	4.f/	.	4.dd\	.
.	.	.	.	8e-/	.	8c/	.	8f/	.	8cc\	.	8e-/	.	8cc\	.
2r	.	2r	.	4d/	.	4B-/	.	4d/	.	4b-\	.	4d/	.	4b-\	.
.	.	.	.	4d/	.	4B-/	.	4r	.	4r	.	4d/	.	4b-\	.
!	!	!	!	!LO:LB:g=original	!	!	!	!	!	!	!	!	!	!	!
=77	=77	=77	=77	=77	=77	=77	=77	=77	=77	=77	=77	=77	=77	=77	=77
2F\	.	2f\	.	4e-'/	.	8c'/	.	1f	.	1f	.	4e-'/	.	4cc'\	.
.	.	.	.	.	.	8r	.	.	.	.	.	.	.	.	.
.	.	.	.	4d'/	.	8B-'/	.	.	.	.	.	4d'/	.	4b-'\	.
.	.	.	.	.	.	8r	.	.	.	.	.	.	.	.	.
2FF/	.	2F/	.	4e-'/	.	8c'/	.	.	.	.	.	4e-'/	.	4cc'\	.
.	.	.	.	.	.	8r	.	.	.	.	.	.	.	.	.
.	.	.	.	4c'/	.	8d'/	.	.	.	.	.	4f'/	.	4dd'\	.
.	.	.	.	.	.	8r	.	.	.	.	.	.	.	.	.
=	=	=	=	=	=	=	=	=	=	=	=	=	=	=	=
2BB-/	.	2B-\	.	2d/	.	2B-/	.	2B-/	.	2f/	.	2d/	.	2b-\	.
4r	.	4r	.	4r	.	4r	.	4r	.	4r	.	4r	.	4r	.
!	!	!	!	!	!	!	!	!	!	!	!	!LO:PB:g=original	!	!	!
=78:|!|:	=78:|!|:	=78:|!|:	=78:|!|:	=78:|!|:	=78:|!|:	=78:|!|:	=78:|!|:	=78:|!|:	=78:|!|:	=78:|!|:	=78:|!|:	=78:|!|:	=78:|!|:	=78:|!|:	=78:|!|:
!	!	!	!	!	!	!	!	!	!	!	!	!LO:TX:b:t=dolce	!	!	!LO:DY:b:t=po.
4r	.	4r	.	4r	.	4r	.	4r	.	4r	.	4b-\	.	4dd'\	p
=79	=79	=79	=79	=79	=79	=79	=79	=79	=79	=79	=79	=79	=79	=79	=79
!	!	!	!	!	!	!	!	!	!LO:DY:b:t=po	!	!LO:DY:b:t=po	!	!	!	!
1r	.	1r	.	1r	.	1r	.	1f	p	1f	p	4b-'\	.	4dd'\	.
.	.	.	.	.	.	.	.	.	.	.	.	4b-'\	.	4dd'\	.
.	.	.	.	.	.	.	.	.	.	.	.	(4b-\	.	(4dd\	.
.	.	.	.	.	.	.	.	.	.	.	.	4cc\)	.	4ee-\)	.
=80	=80	=80	=80	=80	=80	=80	=80	=80	=80	=80	=80	=80	=80	=80	=80
1r	.	1r	.	1r	.	1r	.	1f	.	1f	.	4a'\	.	4cc'\	.
.	.	.	.	.	.	.	.	.	.	.	.	4a'\	.	4cc'\	.
.	.	.	.	.	.	.	.	.	.	.	.	(4a\	.	(4cc\	.
.	.	.	.	.	.	.	.	.	.	.	.	4b-\)	.	4dd\)	.
=81	=81	=81	=81	=81	=81	=81	=81	=81	=81	=81	=81	=81	=81	=81	=81
1r	.	1r	.	1r	.	1r	.	1f	.	1f	.	4cc'\	.	4ee-'\	.
.	.	.	.	.	.	.	.	.	.	.	.	4cc'\	.	4ee-'\	.
.	.	.	.	.	.	.	.	.	.	.	.	(4cc\	.	(4ee-\	.
.	.	.	.	.	.	.	.	.	.	.	.	4dd\)	.	4ff\)	.
=82	=82	=82	=82	=82	=82	=82	=82	=82	=82	=82	=82	=82	=82	=82	=82
1r	.	1r	.	2r	.	2r	.	2f/	.	2f/	.	(2cc\	.	2ee-\	.
!	!	!	!	!	!LO:DY:b:t=po	!	!LO:DY:b:t=pia.	!	!	!	!	!	!	!	!
.	.	.	.	4B-/	p	(4d'/	p	2r	.	2r	.	4b-\	.	(4dd\	.
.	.	.	.	4c/	.	4e-'/)	.	.	.	.	.	4cc\)	.	4ee-\)	.
!LO:LB:g=original	!	!	!	!	!	!	!	!	!	!	!	!	!	!	!
=83	=83	=83	=83	=83	=83	=83	=83	=83	=83	=83	=83	=83	=83	=83	=83
2r	.	2r	.	2.d/	.	2.f/	.	1r	.	1r	.	4dd'\	.	4ff'\	.
.	.	.	.	.	.	.	.	.	.	.	.	4dd'\	.	4ff'\	.
!	!LO:DY:b:t=po.	!	!LO:DY:b:t=po.	!	!	!	!	!	!	!	!	!	!	!	!
2Bn\	p	2Bn\	p	.	.	.	.	.	.	.	.	(4dd\	.	(4ff\	.
.	.	.	.	4f/	.	4a-X/	.	.	.	.	.	4ff\)	.	4aa-X\)	.
!	!	!LO:LB:g=original	!	!	!	!	!	!	!	!	!	!	!	!	!
=84	=84	=84	=84	=84	=84	=84	=84	=84	=84	=84	=84	=84	=84	=84	=84
2c\	.	(2c\	.	2.e-/	.	(2.g/	.	1r	.	1r	.	4ee-'\	.	4gg'\	.
.	.	.	.	.	.	.	.	.	.	.	.	4ee-'\	.	4gg'\	.
2d\	.	2d\)	.	.	.	.	.	.	.	.	.	(4ee-\	.	(4gg\	.
.	.	.	.	4d/	.	4f/)	.	.	.	.	.	4dd\)	.	4ff\)	.
!	!	!	!	!	!	!	!	!	!	!	!	!LO:LB:g=original	!	!LO:LB:g=original	!
=85	=85	=85	=85	=85	=85	=85	=85	=85	=85	=85	=85	=85	=85	=85	=85
2.e-\	.	2.e-\	.	2.c/	.	2.e-/	.	1r	.	1r	.	4cc'\	.	4ee-'\	.
.	.	.	.	.	.	.	.	.	.	.	.	4cc'\	.	4ee-'\	.
.	.	.	.	.	.	.	.	.	.	.	.	(4cc\	.	(4ee-\	.
4en\	.	4en\	.	4B-/	.	4d/	.	.	.	.	.	4b-\)	.	4dd\)	.
=86	=86	=86	=86	=86	=86	=86	=86	=86	=86	=86	=86	=86	=86	=86	=86
2f\	.	2.f\	.	2B-/	.	2d/	.	1r	.	1r	.	2b-\	.	2dd\	.
2r	.	.	.	4A/	.	4c/	.	.	.	.	.	4a\	.	4cc\	.
!	!	!	!	!	!	!	!LO:DY:b:t=for	!	!	!	!	!	!	!	!
.	.	4r	.	4r	.	4ff\	f	.	.	.	.	4r	.	4r	.
!	!	!	!	!	!	!LO:LB:g=original	!	!	!	!LO:LB:g=original	!	!	!	!	!
=87	=87	=87	=87	=87	=87	=87	=87	=87	=87	=87	=87	=87	=87	=87	=87
!	!LO:DY:b:t=for	!	!LO:DY:b:t=for	!	!LO:DY:b:t=for	!	!	!	!LO:DY:b:t=for	!	!LO:DY:b:t=for..	!	!LO:DY:b:t=for	!	!LO:DY:b:t=for&colon;
2BB-/	f	(8B-\L	f	8d/L	f	(8ff\L	.	1d	f	1b-	f	1dd	f	1ff	f
.	.	8d\)	.	8f/	.	8gg\)	.	.	.	.	.	.	.	.	.
.	.	(8B-\	.	(8d/	.	8ff'\	.	.	.	.	.	.	.	.	.
.	.	8d\J)	.	8f/J)	.	8ee-'\J	.	.	.	.	.	.	.	.	.
*	*	*rep	*	*rep	*	*	*	*	*	*	*	*	*	*	*
4r	.	(8B-\L	.	8d/L	.	4dd'\	.	.	.	.	.	.	.	.	.
.	.	8d\)	.	8f/	.	.	.	.	.	.	.	.	.	.	.
4B-\	.	(8B-\	.	(8d/	.	4dd'\	.	.	.	.	.	.	.	.	.
.	.	8d\J)	.	8f/J)	.	.	.	.	.	.	.	.	.	.	.
*	*	*Xrep	*	*Xrep	*	*	*	*	*	*	*	*	*	*	*
=88	=88	=88	=88	=88	=88	=88	=88	=88	=88	=88	=88	=88	=88	=88	=88
2BB-/	.	(8B-\L	.	(8d/L	.	(8dd\L	.	1d	.	1b-	.	1b-	.	1dd	.
.	.	8d\)	.	8f/)	.	8ee-\	.	.	.	.	.	.	.	.	.
.	.	(8B-\	.	(8d/	.	8dd\	.	.	.	.	.	.	.	.	.
.	.	8d\J)	.	8f/J)	.	8cc\J)	.	.	.	.	.	.	.	.	.
*	*	*rep	*	*rep	*	*	*	*	*	*	*	*	*	*	*
4r	.	(8B-\L	.	(8d/L	.	4b-'\	.	.	.	.	.	.	.	.	.
.	.	8d\)	.	8f/)	.	.	.	.	.	.	.	.	.	.	.
4B-\	.	(8B-\	.	(8d/	.	4b-'\	.	.	.	.	.	.	.	.	.
.	.	8d\J)	.	8f/J)	.	.	.	.	.	.	.	.	.	.	.
*	*	*Xrep	*	*Xrep	*	*	*	*	*	*	*	*	*	*	*
!	!	!	!	!LO:LB:g=original	!	!	!	!LO:LB:g=original	!	!	!	!	!	!	!
=89	=89	=89	=89	=89	=89	=89	=89	=89	=89	=89	=89	=89	=89	=89	=89
2F\	.	4A'/	.	(8e-/L	.	4cc'\	.	4f/	.	4cc\	.	1cc	.	1ee-	.
.	.	.	.	8f/)	.	.	.	.	.	.	.	.	.	.	.
.	.	4A'/	.	(8e-/	.	4cc'\	.	4f/	.	4cc\	.	.	.	.	.
.	.	.	.	8f/J)	.	.	.	.	.	.	.	.	.	.	.
*	*	*	*	*rep	*	*	*	*	*	*	*	*	*	*	*
2FF/	.	4c'/	.	(8e-/L	.	4a'\	.	4f/	.	4cc\	.	.	.	.	.
.	.	.	.	8f/)	.	.	.	.	.	.	.	.	.	.	.
.	.	4c'/	.	(8e-/	.	4a'\	.	4f/	.	4cc\	.	.	.	.	.
.	.	.	.	8f/J)	.	.	.	.	.	.	.	.	.	.	.
*	*	*	*	*Xrep	*	*	*	*	*	*	*	*	*	*	*
=90	=90	=90	=90	=90	=90	=90	=90	=90	=90	=90	=90	=90	=90	=90	=90
2BB-/	.	(8B-/L	.	(8d/L	.	(8b-\L	.	2d/	.	2b-\	.	2b-\	.	2dd\	.
.	.	8A/)	.	8f/)	.	8a\	.	.	.	.	.	.	.	.	.
.	.	(8B-/	.	(8d/	.	8b-\	.	.	.	.	.	.	.	.	.
.	.	8A/J)	.	8f/J)	.	8cc\J)	.	.	.	.	.	.	.	.	.
*	*	*	*	*rep	*	*	*	*	*	*	*	*	*	*	*
2r	.	(8B-/L	.	(8d/L	.	(8dd\L	.	2r	.	2r	.	2r	.	2r	.
.	.	8A/)	.	8f/)	.	8cc\	.	.	.	.	.	.	.	.	.
.	.	(8B-/	.	(8d/	.	8dd\	.	.	.	.	.	.	.	.	.
.	.	8A/J)	.	8f/J)	.	8ee-\J)	.	.	.	.	.	.	.	.	.
*	*	*	*	*Xrep	*	*	*	*	*	*	*	*	*	*	*
=91	=91	=91	=91	=91	=91	=91	=91	=91	=91	=91	=91	=91	=91	=91	=91
2BB-/	.	(8B-\L	.	(8d/L	.	(8ff\L	.	1d	.	1b-	.	1dd	.	1ff	.
.	.	8d\)	.	8f/)	.	8gg\	.	.	.	.	.	.	.	.	.
.	.	(8B-\	.	(8d/	.	8ff\	.	.	.	.	.	.	.	.	.
.	.	8d\J)	.	8f/J)	.	8ee-\J)	.	.	.	.	.	.	.	.	.
*	*	*rep	*	*rep	*	*	*	*	*	*	*	*	*	*	*
4r	.	(8B-\L	.	(8d/L	.	4dd'\	.	.	.	.	.	.	.	.	.
.	.	8d\)	.	8f/)	.	.	.	.	.	.	.	.	.	.	.
4B-\	.	(8B-\	.	(8d/	.	4dd'\	.	.	.	.	.	.	.	.	.
.	.	8d\J)	.	8f/J)	.	.	.	.	.	.	.	.	.	.	.
*	*	*Xrep	*	*Xrep	*	*	*	*	*	*	*	*	*	*	*
!	!	!LO:LB:g=original	!	!	!	!	!	!	!	!	!	!	!	!	!
=92	=92	=92	=92	=92	=92	=92	=92	=92	=92	=92	=92	=92	=92	=92	=92
2BB-/	.	(8B-\L	.	(8d/L	.	(8dd\L	.	1d	.	1b-	.	1b-	.	1dd	.
.	.	8d\)	.	8f/)	.	8ee-\	.	.	.	.	.	.	.	.	.
.	.	(8B-\	.	(8d/	.	8dd\	.	.	.	.	.	.	.	.	.
.	.	8d\J)	.	8f/J)	.	8cc\J)	.	.	.	.	.	.	.	.	.
*	*	*rep	*	*rep	*	*	*	*	*	*	*	*	*	*	*
4r	.	(8B-\L	.	(8d/L	.	4b-'\	.	.	.	.	.	.	.	.	.
.	.	8d\)	.	8f/)	.	.	.	.	.	.	.	.	.	.	.
4B-\	.	(8B-\	.	(8d/	.	4b-'\	.	.	.	.	.	.	.	.	.
.	.	8d\J)	.	8f/J)	.	.	.	.	.	.	.	.	.	.	.
*	*	*Xrep	*	*Xrep	*	*	*	*	*	*	*	*	*	*	*
=93	=93	=93	=93	=93	=93	=93	=93	=93	=93	=93	=93	=93	=93	=93	=93
2F\	.	4A'/	.	(8e-/L	.	4cc'\	.	4f/	.	4cc\	.	4cc\	.	4ee-\	.
.	.	.	.	8f/)	.	.	.	.	.	.	.	.	.	.	.
.	.	4A'/	.	(8e-/	.	4cc'\	.	4f/	.	4cc\	.	4cc\	.	4ee-\	.
.	.	.	.	8f/J)	.	.	.	.	.	.	.	.	.	.	.
*	*	*	*	*rep	*	*	*	*	*	*	*	*	*	*	*
2FF/	.	4c'/	.	(8e-/L	.	4a'\	.	4f/	.	4cc\	.	4a\	.	4cc\	.
.	.	.	.	8f/)	.	.	.	.	.	.	.	.	.	.	.
.	.	4c'/	.	(8e-/	.	4a'\	.	4f/	.	4cc\	.	4a\	.	4cc\	.
.	.	.	.	8f/J)	.	.	.	.	.	.	.	.	.	.	.
*	*	*	*	*Xrep	*	*	*	*	*	*	*	*	*	*	*
!LO:LB:g=original	!	!	!	!	!	!	!	!	!	!	!	!	!	!	!
=	=	=	=	=	=	=	=	=	=	=	=	=	=	=	=
2BB-/	.	2B-/	.	2B-/ 2d	.	2b-\	.	2d/	.	2b-\	.	2b-\	.	2dd\	.
4r	.	4r	.	4r	.	4r	.	4r	.	4r	.	4r	.	4r	.
=94:|!|:	=94:|!|:	=94:|!|:	=94:|!|:	=94:|!|:	=94:|!|:	=94:|!|:	=94:|!|:	=94:|!|:	=94:|!|:	=94:|!|:	=94:|!|:	=94:|!|:	=94:|!|:	=94:|!|:	=94:|!|:
!	!	!	!	!	!LO:DY:b:t=pia.	!LO:TX:b:t=dolce	!	!	!	!	!	!	!	!	!
4r	.	4r	.	4g/	p	4ee-\	.	4r	.	4r	.	4r	.	4r	.
=95	=95	=95	=95	=95	=95	=95	=95	=95	=95	=95	=95	=95	=95	=95	=95
!	!LO:DY:b:t=pia&colon;	!	!LO:DY:b:t=pia.	!	!	!	!	!	!	!	!	!LO:TX:a:t=8	!	!	!
4E-\	p	4e-\	p	2.g/	.	2.ee-\	.	1r	.	1r	.	1r	.	1r	.
4E-\	.	4e-\	.	.	.	.	.	.	.	.	.	.	.	.	.
4E-\	.	4e-\	.	.	.	.	.	.	.	.	.	.	.	.	.
4E-\	.	4e-\	.	4b-/	.	4dd\	.	.	.	.	.	.	.	.	.
!	!	!	!	!LO:LB:g=original	!	!LO:LB:g=original	!	!	!	!	!	!	!	!	!
=96	=96	=96	=96	=96	=96	=96	=96	=96	=96	=96	=96	=96	=96	=96	=96
.	.	.	.	.	.	8qqdd/	.	.	.	.	.	.	.	.	.
4E-\	.	4e-\	.	2a-X/	.	2cc\	.	1r	.	1r	.	1r	.	1r	.
4E-\	.	4e-\	.	.	.	.	.	.	.	.	.	.	.	.	.
4E-\	.	4e-\	.	4g/	.	4b-\	.	.	.	.	.	.	.	.	.
4E-\	.	4e-\	.	4r	.	4r	.	.	.	.	.	.	.	.	.
=97	=97	=97	=97	=97	=97	=97	=97	=97	=97	=97	=97	=97	=97	=97	=97
4E-\	.	4e-\	.	(2.a-X/	.	2.cc\	.	1r	.	1r	.	1r	.	1r	.
4E-\	.	4e-\	.	.	.	.	.	.	.	.	.	.	.	.	.
4E-\	.	4e-\	.	.	.	.	.	.	.	.	.	.	.	.	.
4E-\	.	4e-\	.	4g/)	.	4b-\	.	.	.	.	.	.	.	.	.
=98	=98	=98	=98	=98	=98	=98	=98	=98	=98	=98	=98	=98	=98	=98	=98
.	.	.	.	8qqg/	.	8qqb-/	.	.	.	.	.	.	.	.	.
4E-\	.	4e-\	.	(2f/	.	2a-X/	.	1r	.	1r	.	1r	.	1r	.
4E-\	.	4e-\	.	.	.	.	.	.	.	.	.	.	.	.	.
4E-\	.	4e-\	.	4e-/)	.	4g/	.	.	.	.	.	.	.	.	.
4E-\	.	4e-\	.	4r	.	4r	.	.	.	.	.	.	.	.	.
=99	=99	=99	=99	=99	=99	=99	=99	=99	=99	=99	=99	=99	=99	=99	=99
4AA-X/	.	4A/	.	4c/	.	4cc\	.	1r	.	1r	.	1r	.	1r	.
4AA-/	.	4A/	.	2c/	.	2cc\	.	.	.	.	.	.	.	.	.
4AA-/	.	4A/	.	.	.	.	.	.	.	.	.	.	.	.	.
4AA-/	.	4c/	.	(4en/	.	(4een\	.	.	.	.	.	.	.	.	.
=100	=100	=100	=100	=100	=100	=100	=100	=100	=100	=100	=100	=100	=100	=100	=100
4AA-y/	.	4c\	.	4f/	.	4ff\	.	1r	.	1r	.	1r	.	1r	.
4AA-/	.	4c\	.	4g/)	.	4gg\	.	.	.	.	.	.	.	.	.
4AA-/	.	4c\	.	4a-X/	.	4aa-X\)	.	.	.	.	.	.	.	.	.
4AA-/	.	4c\	.	4f/	.	4dd\	.	.	.	.	.	.	.	.	.
=101	=101	=101	=101	=101	=101	=101	=101	=101	=101	=101	=101	=101	=101	=101	=101
4AA-y/	.	4c\	.	4g/	.	1ryy	.	1r	.	1r	.	1r	.	1r	.
4AA-/	.	4c\	.	2g/	.	.	.	.	.	.	.	.	.	.	.
4AA-/	.	4c\	.	.	.	.	.	.	.	.	.	.	.	.	.
4AAn/	.	4c\	.	4ee-\	.	.	.	.	.	.	.	.	.	.	.
!	!	!LO:LB:g=original	!	!	!	!	!	!	!	!	!	!	!	!	!
=102	=102	=102	=102	=102	=102	=102	=102	=102	=102	=102	=102	=102	=102	=102	=102
4BB-/	.	4B-\	.	2ee-\	.	2gg\	.	1r	.	1r	.	1r	.	1r	.
4BB-/	.	4B-\	.	.	.	.	.	.	.	.	.	.	.	.	.
!LO:LB:g=original	!LO:DY:b:t=for.	!	!	!	!	!	!	!	!	!	!	!	!	!	!
8B-\L	f	8b-\L	.	4dd\	.	4ff\	.	.	.	.	.	.	.	.	.
8A-X\	.	8a\	.	.	.	.	.	.	.	.	.	.	.	.	.
8G\	.	8g\	.	4r	.	4r	.	.	.	.	.	.	.	.	.
!	!	!	!LO:DY:b:t=for	!	!	!	!	!	!	!	!	!	!	!	!
8F\J	.	8f\J	f	.	.	.	.	.	.	.	.	.	.	.	.
!	!	!	!	!	!	!	!	!	!	!	!	!LO:LB:g=original	!	!	!
=103	=103	=103	=103	=103	=103	=103	=103	=103	=103	=103	=103	=103	=103	=103	=103
!	!	!	!	!	!LO:DY:b:t=for&colon;	!	!LO:DY:b:t=for	!	!LO:DY:b:t=pia	!	!LO:DY:b:t=for..	!	!LO:DY:b:t=for	!	!LO:DY:b:t=for
4E-\	.	4e-\	.	8g\L	f	2bb-\	f	1B-	p	1b-	f	1g	f	1ee-	f
.	.	.	.	8b-\	.	.	.	.	.	.	.	.	.	.	.
4E-\	.	4e-\	.	8g\	.	.	.	.	.	.	.	.	.	.	.
.	.	.	.	8b-\J	.	.	.	.	.	.	.	.	.	.	.
*	*	*	*	*rep	*	*	*	*	*	*	*	*	*	*	*
4E-\	.	4e-\	.	8g\L	.	2aa\	.	.	.	.	.	.	.	.	.
.	.	.	.	8b-\	.	.	.	.	.	.	.	.	.	.	.
4E-\	.	4e-\	.	8g\	.	.	.	.	.	.	.	.	.	.	.
.	.	.	.	8b-\J	.	.	.	.	.	.	.	.	.	.	.
*	*	*	*	*Xrep	*	*	*	*	*	*	*	*	*	*	*
!	!	!	!	!	!	!	!	!	!	!	!	!	!	!LO:LB:g=original	!
=104	=104	=104	=104	=104	=104	=104	=104	=104	=104	=104	=104	=104	=104	=104	=104
4E-\	.	4e-\	.	8g\L	.	(2.ee-\	.	1B-	.	1b-	.	1g	.	1ee-	.
.	.	.	.	8b-\	.	.	.	.	.	.	.	.	.	.	.
4E-\	.	4e-\	.	8g\	.	.	.	.	.	.	.	.	.	.	.
.	.	.	.	8b-\J	.	.	.	.	.	.	.	.	.	.	.
*	*	*	*	*rep	*	*	*	*	*	*	*	*	*	*	*
4E-\	.	4e-\	.	8g\L	.	.	.	.	.	.	.	.	.	.	.
.	.	.	.	8b-\	.	.	.	.	.	.	.	.	.	.	.
4E-\	.	4e-\	.	8g\	.	8ff\L	.	.	.	.	.	.	.	.	.
.	.	.	.	8b-\J	.	8gg\J)	.	.	.	.	.	.	.	.	.
*	*	*	*	*Xrep	*	*	*	*	*	*	*	*	*	*	*
!	!	!	!	!LO:LB:g=original	!	!	!	!	!	!LO:LB:g=original	!	!	!	!	!
=105	=105	=105	=105	=105	=105	=105	=105	=105	=105	=105	=105	=105	=105	=105	=105
4F\	.	4B-/	.	(8a-X\L	.	(8aa\L	.	1B-	.	1b-	.	1a-X	.	1ff	.
.	.	.	.	8b-\	.	8gg\	.	.	.	.	.	.	.	.	.
4BB-/	.	4B-/	.	8a-\)	.	8ff\	.	.	.	.	.	.	.	.	.
.	.	.	.	8b-\J	.	8ee-\J	.	.	.	.	.	.	.	.	.
*	*	*	*	*rep	*	*	*	*	*	*	*	*	*	*	*
4F\	.	4B-/	.	(8a-\L	.	8dd\L	.	.	.	.	.	.	.	.	.
.	.	.	.	8b-\	.	8cc\	.	.	.	.	.	.	.	.	.
4BB-/	.	4B-/	.	8a-\)	.	8dd\)	.	.	.	.	.	.	.	.	.
.	.	.	.	8b-\J	.	8ee-\J	.	.	.	.	.	.	.	.	.
*	*	*	*	*Xrep	*	*	*	*	*	*	*	*	*	*	*
=106	=106	=106	=106	=106	=106	=106	=106	=106	=106	=106	=106	=106	=106	=106	=106
4D/	.	4B-/	.	(8a-X\L	.	4ff\	.	1B-	.	1b-	.	1a	.	1ff	.
.	.	.	.	8b-\	.	.	.	.	.	.	.	.	.	.	.
4BB-/	.	4B-/	.	8a-\)	.	4b-'\	.	.	.	.	.	.	.	.	.
.	.	.	.	8b-\J	.	.	.	.	.	.	.	.	.	.	.
*	*	*	*	*rep	*	*	*	*	*	*	*	*	*	*	*
4D/	.	4B-/	.	(8a-\L	.	4b-'\	.	.	.	.	.	.	.	.	.
.	.	.	.	8b-\	.	.	.	.	.	.	.	.	.	.	.
4BB-/	.	4B-/	.	8a-\)	.	4b-'\	.	.	.	.	.	.	.	.	.
.	.	.	.	8b-\J	.	.	.	.	.	.	.	.	.	.	.
*	*	*	*	*Xrep	*	*	*	*	*	*	*	*	*	*	*
=107	=107	=107	=107	=107	=107	=107	=107	=107	=107	=107	=107	=107	=107	=107	=107
4E-\	.	4e-\	.	8g\L	.	2bb-\	.	1B-	.	1b-	.	1g	.	1ee-	.
.	.	.	.	8b-\	.	.	.	.	.	.	.	.	.	.	.
4E-\	.	4e-\	.	8g\	.	.	.	.	.	.	.	.	.	.	.
.	.	.	.	8b-\J	.	.	.	.	.	.	.	.	.	.	.
*	*	*	*	*rep	*	*	*	*	*	*	*	*	*	*	*
4E-\	.	4e-\	.	8g\L	.	2gg\	.	.	.	.	.	.	.	.	.
.	.	.	.	8b-\	.	.	.	.	.	.	.	.	.	.	.
4E-\	.	4e-\	.	8g\	.	.	.	.	.	.	.	.	.	.	.
.	.	.	.	8b-\J	.	.	.	.	.	.	.	.	.	.	.
*	*	*	*	*Xrep	*	*	*	*	*	*	*	*	*	*	*
!	!	!	!	!	!	!LO:LB:g=original	!	!LO:LB:g=original	!	!	!	!	!	!	!
=108	=108	=108	=108	=108	=108	=108	=108	=108	=108	=108	=108	=108	=108	=108	=108
4E-\	.	4e-\	.	8g\L	.	(2.ee-\	.	1B-	.	1b-	.	1g	.	1ee-	.
.	.	.	.	8b-\	.	.	.	.	.	.	.	.	.	.	.
4E-\	.	4e-\	.	8g\	.	.	.	.	.	.	.	.	.	.	.
.	.	.	.	8b-\J	.	.	.	.	.	.	.	.	.	.	.
*	*	*	*	*rep	*	*	*	*	*	*	*	*	*	*	*
4E-\	.	4e-\	.	8g\L	.	.	.	.	.	.	.	.	.	.	.
.	.	.	.	8b-\	.	.	.	.	.	.	.	.	.	.	.
4E-\	.	4e-\	.	8g\	.	8ff\L	.	.	.	.	.	.	.	.	.
.	.	.	.	8b-\J	.	8gg\J)	.	.	.	.	.	.	.	.	.
*	*	*	*	*Xrep	*	*	*	*	*	*	*	*	*	*	*
=109	=109	=109	=109	=109	=109	=109	=109	=109	=109	=109	=109	=109	=109	=109	=109
4F\	.	4B-\	.	8a-X\L	.	8aa\L	.	1B-	.	1b-	.	1a-X	.	1ff	.
.	.	.	.	8b-\	.	(8gg\	.	.	.	.	.	.	.	.	.
4BB-/	.	4B-\	.	8a-\	.	8ff\	.	.	.	.	.	.	.	.	.
.	.	.	.	8b-\J	.	8ee-\J)	.	.	.	.	.	.	.	.	.
*	*	*	*	*rep	*	*	*	*	*	*	*	*	*	*	*
4F\	.	4B-\	.	8a-\L	.	(8dd\L	.	.	.	.	.	.	.	.	.
.	.	.	.	8b-\	.	8cc\	.	.	.	.	.	.	.	.	.
4BB-/	.	4B-\	.	8a-\	.	8dd\	.	.	.	.	.	.	.	.	.
.	.	.	.	8b-\J	.	8ee-\J)	.	.	.	.	.	.	.	.	.
*	*	*	*	*Xrep	*	*	*	*	*	*	*	*	*	*	*
=110	=110	=110	=110	=110	=110	=110	=110	=110	=110	=110	=110	=110	=110	=110	=110
4D/	.	4B-\	.	8a-X\L	.	4ff\	.	1B-	.	1b-	.	1a	.	1ff	.
.	.	.	.	8b-\	.	.	.	.	.	.	.	.	.	.	.
4BB-/	.	4B-\	.	8a-\	.	4b-'\	.	.	.	.	.	.	.	.	.
.	.	.	.	8b-\J	.	.	.	.	.	.	.	.	.	.	.
*	*	*	*	*rep	*	*	*	*	*	*	*	*	*	*	*
4D/	.	4B-\	.	8a-\L	.	4b-'\	.	.	.	.	.	.	.	.	.
.	.	.	.	8b-\	.	.	.	.	.	.	.	.	.	.	.
!	!LO:DY:b:t=pia	!	!	!	!	!	!	!	!	!	!	!	!	!	!
4BB-/	p	4B-\	.	8a-\	.	4b-'\	.	.	.	.	.	.	.	.	.
.	.	.	.	8b-\J	.	.	.	.	.	.	.	.	.	.	.
*	*	*	*	*Xrep	*	*	*	*	*	*	*	*	*	*	*
=111	=111	=111	=111	=111	=111	=111	=111	=111	=111	=111	=111	=111	=111	=111	=111
!LO:TX:b:t=Violocjelli	!	!	!	!	!LO:DY:b:t=pia.	!	!LO:DY:b:t=pia.	!	!	!	!	!	!	!	!
1E-	.	4A/	.	4g\	p	2.cc\	p	1r	.	1r	.	1r	.	1r	.
.	.	4r	.	4r	.	.	.	.	.	.	.	.	.	.	.
.	.	2r	.	4r	.	.	.	.	.	.	.	.	.	.	.
.	.	.	.	4cc\	.	(4ff\	.	.	.	.	.	.	.	.	.
!	!	!LO:LB:g=original	!	!	!	!	!	!	!	!	!	!	!	!	!
=112	=112	=112	=112	=112	=112	=112	=112	=112	=112	=112	=112	=112	=112	=112	=112
1F	.	1r	.	(2an\	.	2ee-\	.	1r	.	1r	.	1r	.	1r	.
.	.	.	.	2b-\)	.	2dd\)	.	.	.	.	.	.	.	.	.
=113	=113	=113	=113	=113	=113	=113	=113	=113	=113	=113	=113	=113	=113	=113	=113
1G	.	1r	.	2r	.	2.ee-\	.	1r	.	1r	.	1r	.	1r	.
.	.	.	.	4r	.	.	.	.	.	.	.	.	.	.	.
.	.	.	.	4ee-\	.	(4aa-X\	.	.	.	.	.	.	.	.	.
!	!	!	!	!LO:LB:g=original	!	!	!	!	!	!	!	!	!	!	!
=114	=114	=114	=114	=114	=114	=114	=114	=114	=114	=114	=114	=114	=114	=114	=114
1An	.	1r	.	(2cc#X\	.	2gg\)	.	1r	.	1r	.	1r	.	1r	.
.	.	.	.	2dd\)	.	2ff\	.	.	.	.	.	.	.	.	.
!LO:LB:g=original	!	!	!	!	!	!	!	!	!	!	!	!	!	!	!
=115	=115	=115	=115	=115	=115	=115	=115	=115	=115	=115	=115	=115	=115	=115	=115
1B-	.	1r	.	2r	.	2.gg\	.	1r	.	1r	.	1r	.	1r	.
.	.	.	.	4r	.	.	.	.	.	.	.	.	.	.	.
.	.	.	.	4gg\	.	4ccc\	.	.	.	.	.	.	.	.	.
=116	=116	=116	=116	=116	=116	=116	=116	=116	=116	=116	=116	=116	=116	=116	=116
1c	.	1r	.	2een\	.	2bb-\	.	1r	.	1r	.	1r	.	1r	.
.	.	.	.	2ff\	.	2aan\	.	.	.	.	.	.	.	.	.
=117	=117	=117	=117	=117	=117	=117	=117	=117	=117	=117	=117	=117	=117	=117	=117
1d	.	1r	.	2r	.	4bb-\	.	1r	.	1r	.	1r	.	1r	.
.	.	.	.	.	.	4ff'\	.	.	.	.	.	.	.	.	.
.	.	.	.	4r	.	4ff'\	.	.	.	.	.	.	.	.	.
.	.	.	.	4b-\	.	4ff'\	.	.	.	.	.	.	.	.	.
=118	=118	=118	=118	=118	=118	=118	=118	=118	=118	=118	=118	=118	=118	=118	=118
1e-	.	1r	.	4b-'\	.	1ff#X	.	1r	.	1r	.	1r	.	1r	.
.	.	.	.	4b-'\	.	.	.	.	.	.	.	.	.	.	.
.	.	.	.	4b-'\	.	.	.	.	.	.	.	.	.	.	.
.	.	.	.	4b-'\	.	.	.	.	.	.	.	.	.	.	.
=119	=119	=119	=119	=119	=119	=119	=119	=119	=119	=119	=119	=119	=119	=119	=119
2f\	.	1r	.	4b-'\	.	4gg\	.	1r	.	1r	.	1r	.	1r	.
.	.	.	.	4b-'\	.	8.b-\L	.	.	.	.	.	.	.	.	.
.	.	.	.	.	.	16cc\Jk	.	.	.	.	.	.	.	.	.
2F\	.	.	.	4b-'\	.	2ccT\	.	.	.	.	.	.	.	.	.
.	.	.	.	4an'\	.	.	.	.	.	.	.	.	.	.	.
!	!	!	!	!	!	!LO:LB:g=original	!	!	!	!	!	!	!	!	!
=	=	=	=	=	=	=	=	=	=	=	=	=	=	=	=
2B-\	.	2r	.	2b-\	.	2b-\	.	2r	.	2r	.	2r	.	2r	.
4r	.	4r	.	4r	.	4r	.	4r	.	4r	.	4r	.	4r	.
=120:|!|:	=120:|!|:	=120:|!|:	=120:|!|:	=120:|!|:	=120:|!|:	=120:|!|:	=120:|!|:	=120:|!|:	=120:|!|:	=120:|!|:	=120:|!|:	=120:|!|:	=120:|!|:	=120:|!|:	=120:|!|:
!	!	!	!	!	!LO:DY:b:t=pia.	!	!	!	!	!	!	!	!	!	!
4r	.	4r	.	4b-\	p	4dd\	.	4r	.	4r	.	4r	.	4r	.
=121	=121	=121	=121	=121	=121	=121	=121	=121	=121	=121	=121	=121	=121	=121	=121
!	!LO:DY:b:t=pia	!	!LO:DY:b:t=po.	!	!	!	!LO:DY:b:t=po&colon;	!	!	!	!	!	!	!	!
4B-'\	p	4b-\	p	2.b-\	.	2.dd\	p	1r	.	1r	.	1r	.	1r	.
4B-'\	.	4b-\	.	.	.	.	.	.	.	.	.	.	.	.	.
4B-'\	.	4b-\	.	.	.	.	.	.	.	.	.	.	.	.	.
4B-'\	.	4b-\	.	4dd\	.	4ff\	.	.	.	.	.	.	.	.	.
=122	=122	=122	=122	=122	=122	=122	=122	=122	=122	=122	=122	=122	=122	=122	=122
4B-'\	.	4b-\	.	(4cc\	.	(4ee-\	.	1r	.	1r	.	1r	.	1r	.
4B-'\	.	4b-\	.	4b-\)	.	4dd\)	.	.	.	.	.	.	.	.	.
4B-'\	.	4b-\	.	4r	.	4r	.	.	.	.	.	.	.	.	.
4B-'\	.	4b-\	.	4dd\	.	4ff\	.	.	.	.	.	.	.	.	.
=123	=123	=123	=123	=123	=123	=123	=123	=123	=123	=123	=123	=123	=123	=123	=123
4B-\	.	4b-\	.	2.dd\	.	2.ff\	.	1r	.	1r	.	1r	.	1r	.
4B-\	.	4b-\	.	.	.	.	.	.	.	.	.	.	.	.	.
4B-\	.	4b-\	.	.	.	.	.	.	.	.	.	.	.	.	.
4B-\	.	4b-\	.	4ff\	.	4aa-X\	.	.	.	.	.	.	.	.	.
=124	=124	=124	=124	=124	=124	=124	=124	=124	=124	=124	=124	=124	=124	=124	=124
4B-\	.	4b-\	.	(4ee-\	.	(4gg\	.	1r	.	1r	.	1r	.	1r	.
4B-\	.	4b-\	.	4dd\)	.	4ff\)	.	.	.	.	.	.	.	.	.
!	!	!	!	!LO:LB:g=original	!	!	!	!	!	!	!	!	!	!	!
4B-\	.	4b-\	.	4r	.	4r	.	.	.	.	.	.	.	.	.
4B-\	.	4b-\	.	4f/	.	[4dd\	.	.	.	.	.	.	.	.	.
=125	=125	=125	=125	=125	=125	=125	=125	=125	=125	=125	=125	=125	=125	=125	=125
4B-\	.	4b-\	.	(4f/	.	4dd\]	.	1r	.	1r	.	1r	.	1r	.
4B-\	.	4b-\	.	4g/)	.	4ee-\	.	.	.	.	.	.	.	.	.
4B-\	.	4b-\	.	4r	.	4r	.	.	.	.	.	.	.	.	.
4B-\	.	4b-\	.	4e-/	.	[4g/	.	.	.	.	.	.	.	.	.
!	!	!	!	!	!	!	!	!	!	!	!	!LO:LB:g=original	!	!	!
=126	=126	=126	=126	=126	=126	=126	=126	=126	=126	=126	=126	=126	=126	=126	=126
4B-\	.	4B-/	.	(4e-/	.	4g/]	.	1r	.	1r	.	2r	.	2r	.
4B-\	.	4B-/	.	4d/)	.	4f/	.	.	.	.	.	.	.	.	.
4B-\	.	4B-/	.	4r	.	4r	.	.	.	.	.	4r	.	4r	.
!	!	!	!	!	!	!	!	!	!	!	!	!	!LO:DY:b:t=po&colon;	!	!
4B-\	.	4B-/	.	4B-/	.	4d/	.	.	.	.	.	4b-\	p	4dd\	.
=127	=127	=127	=127	=127	=127	=127	=127	=127	=127	=127	=127	=127	=127	=127	=127
!LO:TX:b:t=Basso	!LO:DY:b:t=pia	!	!	!	!	!	!	!	!	!	!	!	!	!	!LO:DY:b:t=pia.
4BB-/	p	4B-/	.	2.B-/	.	2.d/	.	1r	.	1r	.	(2.b-\	.	2.dd\	p
4BB-/	.	4B-/	.	.	.	.	.	.	.	.	.	.	.	.	.
4BB-/	.	4B-/	.	.	.	.	.	.	.	.	.	.	.	.	.
4BB-/	.	4B-/	.	4d/	.	4f/	.	.	.	.	.	4dd\)	.	4ff\	.
!	!	!	!	!	!	!	!	!	!	!	!	!	!	!LO:LB:g=original	!
=128	=128	=128	=128	=128	=128	=128	=128	=128	=128	=128	=128	=128	=128	=128	=128
4BB-/	.	4B-/	.	(4c/	.	(4e-/	.	1r	.	1r	.	4cc\	.	(4ee-\	.
4BB-/	.	4B-/	.	4B-/)	.	4d/)	.	.	.	.	.	4b-\	.	4dd\)	.
4BB-/	.	4B-/	.	4r	.	4r	.	.	.	.	.	4r	.	4r	.
4BB-/	.	4B-/	.	4d/	.	4f/	.	.	.	.	.	4dd\	.	4ff\	.
!LO:LB:g=original	!	!	!	!	!	!	!	!	!	!	!	!	!	!	!
=129	=129	=129	=129	=129	=129	=129	=129	=129	=129	=129	=129	=129	=129	=129	=129
4BB-/	.	4B-/	.	2.d/	.	2.f/	.	1r	.	1r	.	2.dd\	.	2.ff\	.
4BB-/	.	4B-/	.	.	.	.	.	.	.	.	.	.	.	.	.
4BB-/	.	4B-/	.	.	.	.	.	.	.	.	.	.	.	.	.
4BB-/	.	4B-/	.	4f/	.	4a-X/	.	.	.	.	.	4ff\	.	4aa-X\	.
!	!	!	!	!	!	!LO:LB:g=original	!	!	!	!	!	!	!	!	!
=130	=130	=130	=130	=130	=130	=130	=130	=130	=130	=130	=130	=130	=130	=130	=130
4BB-/	.	4B-/	.	(4e-/	.	(4g/	.	1r	.	1r	.	(4ee-\	.	(4gg\	.
4BB-/	.	4B-/	.	4d/)	.	4f/)	.	.	.	.	.	4dd\)	.	4ff\)	.
4BB-/	.	4B-/	.	4r	.	4r	.	.	.	.	.	4r	.	4r	.
4BB-/	.	4B-/	.	4A-X/	.	4d/	.	.	.	.	.	[4f/	.	4dd\	.
=131	=131	=131	=131	=131	=131	=131	=131	=131	=131	=131	=131	=131	=131	=131	=131
4BB-/	.	4B-/	.	(4A/	.	(4d/	.	1r	.	1r	.	4f/]	.	(4dd\	.
4BB-/	.	4B-/	.	4G/)	.	4e-/)	.	.	.	.	.	4g/	.	4ee-\)	.
4BB-/	.	4B-/	.	4r	.	4r	.	.	.	.	.	4r	.	4r	.
4BB-/	.	4B-/	.	4e-/	.	4g/	.	.	.	.	.	[4ee-\	.	4gg\	.
=132	=132	=132	=132	=132	=132	=132	=132	=132	=132	=132	=132	=132	=132	=132	=132
4BB-/	.	4B-/	.	(4e-/	.	4g/	.	1r	.	1r	.	4ee-\]	.	4gg\	.
4BB-/	.	4B-/	.	4d/)	.	4f/	.	.	.	.	.	4dd\	.	4ff\	.
8B-\L	.	8b-\L	.	2r	.	2r	.	.	.	.	.	2r	.	2r	.
8A\	.	8a\	.	.	.	.	.	.	.	.	.	.	.	.	.
8G\	.	8g\	.	.	.	.	.	.	.	.	.	.	.	.	.
8F\J	.	8f\J	.	.	.	.	.	.	.	.	.	.	.	.	.
=133	=133	=133	=133	=133	=133	=133	=133	=133	=133	=133	=133	=133	=133	=133	=133
!	!LO:DY:b:t=for	!	!LO:DY:b:t=for	!	!LO:DY:b:t=for.	!	!LO:DY:b:t=for	!	!	!	!LO:DY:b:t=for	!	!LO:DY:b:t=for	!	!LO:DY:b:t=for.
4E-\	f	4e-\	f	8g\L	f	2bb-\	f	1B-	.	1b-	f	1g	f	1ee-	f
.	.	.	.	8b-\	.	.	.	.	.	.	.	.	.	.	.
4E-\	.	4e-\	.	8g\	.	.	.	.	.	.	.	.	.	.	.
.	.	.	.	8b-\J	.	.	.	.	.	.	.	.	.	.	.
*	*	*	*	*rep	*	*	*	*	*	*	*	*	*	*	*
4E-\	.	4e-\	.	8g\L	.	2gg\	.	.	.	.	.	.	.	.	.
.	.	.	.	8b-\	.	.	.	.	.	.	.	.	.	.	.
4E-\	.	4e-\	.	8g\	.	.	.	.	.	.	.	.	.	.	.
.	.	.	.	8b-\J	.	.	.	.	.	.	.	.	.	.	.
*	*	*	*	*Xrep	*	*	*	*	*	*	*	*	*	*	*
=134	=134	=134	=134	=134	=134	=134	=134	=134	=134	=134	=134	=134	=134	=134	=134
4E-\	.	4e-\	.	8g\L	.	2.ee-\	.	1B-	.	1b-	.	1g	.	1ee-	.
.	.	.	.	8b-\	.	.	.	.	.	.	.	.	.	.	.
4E-\	.	4e-\	.	8g\	.	.	.	.	.	.	.	.	.	.	.
.	.	.	.	8b-\J	.	.	.	.	.	.	.	.	.	.	.
*	*	*	*	*rep	*	*	*	*	*	*	*	*	*	*	*
4E-\	.	4e-\	.	8g\L	.	.	.	.	.	.	.	.	.	.	.
.	.	.	.	8b-\	.	.	.	.	.	.	.	.	.	.	.
4E-\	.	4e-\	.	8g\	.	(8ff\L	.	.	.	.	.	.	.	.	.
.	.	.	.	8b-\J	.	8gg\J)	.	.	.	.	.	.	.	.	.
*	*	*	*	*Xrep	*	*	*	*	*	*	*	*	*	*	*
!	!	!	!	!LO:LB:g=original	!	!	!	!	!	!	!	!LO:LB:g=original	!	!	!
=135	=135	=135	=135	=135	=135	=135	=135	=135	=135	=135	=135	=135	=135	=135	=135
.	.	.	.	.	.	8qbb-/	.	.	.	.	.	.	.	.	.
4F\	.	4B-/	.	8a-X\L	.	8aa-X\L	.	1B-	.	1b-	.	1a-X	.	1ff	.
.	.	.	.	8b-\	.	8gg\	.	.	.	.	.	.	.	.	.
4BB-/	.	4B-/	.	8a-\	.	8aa-\	.	.	.	.	.	.	.	.	.
.	.	.	.	8b-\J	.	8ff\J	.	.	.	.	.	.	.	.	.
.	.	.	.	.	.	8qbb-/	.	.	.	.	.	.	.	.	.
*	*	*	*	*rep	*	*	*	*	*	*	*	*	*	*	*
4F\	.	4B-/	.	8a-\L	.	8aa-\L	.	.	.	.	.	.	.	.	.
.	.	.	.	8b-\	.	8gg\	.	.	.	.	.	.	.	.	.
4BB-/	.	4B-/	.	8a-\	.	8aa-\	.	.	.	.	.	.	.	.	.
.	.	.	.	8b-\J	.	8ff\J	.	.	.	.	.	.	.	.	.
*	*	*	*	*Xrep	*	*	*	*	*	*	*	*	*	*	*
=136	=136	=136	=136	=136	=136	=136	=136	=136	=136	=136	=136	=136	=136	=136	=136
.	.	.	.	.	.	8qee-/	.	.	.	.	.	.	.	.	.
4D/	.	4B-/	.	8a-X\L	.	8dd\L	.	1B-	.	1b-	.	1a	.	1ff	.
.	.	.	.	8b-\	.	8cc\	.	.	.	.	.	.	.	.	.
4BB-/	.	4B-/	.	8a-\	.	8dd\	.	.	.	.	.	.	.	.	.
.	.	.	.	8b-\J	.	8b-\J	.	.	.	.	.	.	.	.	.
.	.	.	.	.	.	8qee-/	.	.	.	.	.	.	.	.	.
*	*	*	*	*rep	*	*	*	*	*	*	*	*	*	*	*
4D/	.	4B-/	.	8a-\L	.	8dd\L	.	.	.	.	.	.	.	.	.
.	.	.	.	8b-\	.	8cc\	.	.	.	.	.	.	.	.	.
4BB-/	.	4B-/	.	8a-\	.	8dd\	.	.	.	.	.	.	.	.	.
.	.	.	.	8b-\J	.	8b-\J	.	.	.	.	.	.	.	.	.
*	*	*	*	*Xrep	*	*	*	*	*	*	*	*	*	*	*
=137	=137	=137	=137	=137	=137	=137	=137	=137	=137	=137	=137	=137	=137	=137	=137
4E-\	.	4e-\	.	8g\L	.	2bb-\	.	1B-	.	1b-	.	1g	.	1ee-	.
.	.	.	.	8b-\	.	.	.	.	.	.	.	.	.	.	.
4E-\	.	4e-\	.	8g\	.	.	.	.	.	.	.	.	.	.	.
.	.	.	.	8b-\J	.	.	.	.	.	.	.	.	.	.	.
*	*	*	*	*rep	*	*	*	*	*	*	*	*	*	*	*
4E-\	.	4e-\	.	8g\L	.	2gg\	.	.	.	.	.	.	.	.	.
.	.	.	.	8b-\	.	.	.	.	.	.	.	.	.	.	.
4E-\	.	4e-\	.	8g\	.	.	.	.	.	.	.	.	.	.	.
.	.	.	.	8b-\J	.	.	.	.	.	.	.	.	.	.	.
*	*	*	*	*Xrep	*	*	*	*	*	*	*	*	*	*	*
!	!	!LO:LB:g=original	!	!	!	!	!	!	!	!	!	!	!	!	!
=138	=138	=138	=138	=138	=138	=138	=138	=138	=138	=138	=138	=138	=138	=138	=138
4E-\	.	4e-\	.	8g\L	.	2.ee-\	.	1B-	.	1b-	.	1g	.	1ee-	.
.	.	.	.	8b-\	.	.	.	.	.	.	.	.	.	.	.
4E-\	.	4e-\	.	8g\	.	.	.	.	.	.	.	.	.	.	.
.	.	.	.	8b-\J	.	.	.	.	.	.	.	.	.	.	.
*	*	*	*	*rep	*	*	*	*	*	*	*	*	*	*	*
4E-\	.	4e-\	.	8g\L	.	.	.	.	.	.	.	.	.	.	.
.	.	.	.	8b-\	.	.	.	.	.	.	.	.	.	.	.
4E-\	.	4e-\	.	8g\	.	(8ff\L	.	.	.	.	.	.	.	.	.
.	.	.	.	8b-\J	.	8gg\J)	.	.	.	.	.	.	.	.	.
*	*	*	*	*Xrep	*	*	*	*	*	*	*	*	*	*	*
!	!	!	!	!	!	!LO:LB:g=original	!	!	!	!LO:LB:g=original	!	!	!	!LO:LB:g=original	!
=139	=139	=139	=139	=139	=139	=139	=139	=139	=139	=139	=139	=139	=139	=139	=139
.	.	.	.	.	.	8qqbb-/	.	.	.	.	.	.	.	.	.
4F\	.	4B-/	.	8a-X\L	.	8aa-X\L	.	1B-	.	1b-	.	1a-X	.	1ff	.
.	.	.	.	8b-\	.	8gg\	.	.	.	.	.	.	.	.	.
4BB-/	.	4B-/	.	8a-\	.	8aa-\	.	.	.	.	.	.	.	.	.
.	.	.	.	8b-\J	.	8ff\J	.	.	.	.	.	.	.	.	.
.	.	.	.	.	.	8qqbb-/	.	.	.	.	.	.	.	.	.
*	*	*	*	*rep	*	*	*	*	*	*	*	*	*	*	*
4F\	.	4B-/	.	8a-\L	.	8aa-\L	.	.	.	.	.	.	.	.	.
.	.	.	.	8b-\	.	8gg\	.	.	.	.	.	.	.	.	.
4BB-/	.	4B-/	.	8a-\	.	8aa-\	.	.	.	.	.	.	.	.	.
.	.	.	.	8b-\J	.	8ff\J	.	.	.	.	.	.	.	.	.
*	*	*	*	*Xrep	*	*	*	*	*	*	*	*	*	*	*
!LO:LB:g=original	!	!	!	!	!	!	!	!	!	!	!	!	!	!	!
=140	=140	=140	=140	=140	=140	=140	=140	=140	=140	=140	=140	=140	=140	=140	=140
.	.	.	.	.	.	8qee-/	.	.	.	.	.	.	.	.	.
4D/	.	4B-/	.	8a-X\L	.	8dd\L	.	1B-	.	1b-	.	1a	.	1ff	.
.	.	.	.	8b-\	.	8cc\	.	.	.	.	.	.	.	.	.
4BB-/	.	4B-/	.	8a-\	.	8dd\	.	.	.	.	.	.	.	.	.
.	.	.	.	8b-\J	.	8b-\J	.	.	.	.	.	.	.	.	.
.	.	.	.	.	.	8qee-/	.	.	.	.	.	.	.	.	.
*	*	*	*	*rep	*	*	*	*	*	*	*	*	*	*	*
4D/	.	4B-/	.	8a-\L	.	8dd\L	.	.	.	.	.	.	.	.	.
.	.	.	.	8b-\	.	8cc\	.	.	.	.	.	.	.	.	.
4BB-/	.	4B-/	.	8a-\	.	8dd\	.	.	.	.	.	.	.	.	.
.	.	.	.	8b-\J	.	8b-\J	.	.	.	.	.	.	.	.	.
*	*	*	*	*Xrep	*	*	*	*	*	*	*	*	*	*	*
!	!	!	!	!	!	!	!	!LO:LB:g=original	!	!	!	!	!	!	!
=141	=141	=141	=141	=141	=141	=141	=141	=141	=141	=141	=141	=141	=141	=141	=141
!	!LO:DY:b:t=pia.	!	!LO:DY:b:t=po..	!	!	!	!	!	!	!	!	!	!	!	!
4E-\	p	4e-\	p	2g/	.	2ee-\	.	1r	.	1r	.	2g/	.	2ee-\	.
4E-\	.	4e-\	.	.	.	.	.	.	.	.	.	.	.	.	.
4E-\	.	4e-\	.	4r	.	4r	.	.	.	.	.	2r	.	2r	.
!	!	!	!	!	!	!	!LO:DY:b:t=po.	!	!	!	!	!	!	!	!
4E-\	.	4e-\	.	4ee-\	.	4gg\	p	.	.	.	.	.	.	.	.
=142	=142	=142	=142	=142	=142	=142	=142	=142	=142	=142	=142	=142	=142	=142	=142
!	!	!	!	!	!LO:DY:b:t=pia.	!	!	!	!	!	!	!	!	!	!
4r	.	4r	.	2.g/	p	2.b-\	.	1r	.	1r	.	1r	.	1r	.
4E-\	.	4e-\	.	.	.	.	.	.	.	.	.	.	.	.	.
4E-\	.	4e-\	.	.	.	.	.	.	.	.	.	.	.	.	.
4E-\	.	4e-\	.	4a-X/	.	4cc\	.	.	.	.	.	.	.	.	.
=143	=143	=143	=143	=143	=143	=143	=143	=143	=143	=143	=143	=143	=143	=143	=143
4r	.	4r	.	2.f/	.	2.a-X/	.	1r	.	1r	.	1r	.	1r	.
4E-\	.	4e-\	.	.	.	.	.	.	.	.	.	.	.	.	.
4E-\	.	4e-\	.	.	.	.	.	.	.	.	.	.	.	.	.
4E-\	.	4e-\	.	4g/	.	4b-/	.	.	.	.	.	.	.	.	.
!	!	!	!	!LO:LB:g=original	!	!	!	!	!	!	!	!	!	!	!
=144	=144	=144	=144	=144	=144	=144	=144	=144	=144	=144	=144	=144	=144	=144	=144
4r	.	4r	.	2e-/	.	2g/	.	1r	.	1r	.	1r	.	1r	.
4E-\	.	4e-\	.	.	.	.	.	.	.	.	.	.	.	.	.
4E-\	.	4e-\	.	(8B-/L	.	(8g/L	.	.	.	.	.	.	.	.	.
.	.	.	.	8c/	.	8a/	.	.	.	.	.	.	.	.	.
4E-\	.	4e-\	.	8B-/)	.	8g/)	.	.	.	.	.	.	.	.	.
.	.	.	.	8A-X/J	.	8f/J	.	.	.	.	.	.	.	.	.
=145	=145	=145	=145	=145	=145	=145	=145	=145	=145	=145	=145	=145	=145	=145	=145
4r	.	4r	.	4G/	.	2e-/	.	1r	.	1r	.	1r	.	1r	.
4E-\	.	4e-\	.	4r	.	.	.	.	.	.	.	.	.	.	.
4E-\	.	4e-\	.	4r	.	4r	.	.	.	.	.	.	.	.	.
4E-\	.	4e-\	.	4ee-\	.	4gg\	.	.	.	.	.	.	.	.	.
=146	=146	=146	=146	=146	=146	=146	=146	=146	=146	=146	=146	=146	=146	=146	=146
4r	.	4r	.	2.g/	.	2.b-\	.	1r	.	1r	.	1r	.	1r	.
4E-\	.	4e-\	.	.	.	.	.	.	.	.	.	.	.	.	.
4E-\	.	4e-\	.	.	.	.	.	.	.	.	.	.	.	.	.
4E-\	.	4e-\	.	4a-X/	.	4cc\	.	.	.	.	.	.	.	.	.
!	!	!	!	!	!	!LO:LB:g=original	!	!	!	!	!	!	!	!	!
=147	=147	=147	=147	=147	=147	=147	=147	=147	=147	=147	=147	=147	=147	=147	=147
4r	.	4r	.	2.f/	.	2.a-X\	.	1r	.	1r	.	1r	.	1r	.
4E-\	.	4e-\	.	.	.	.	.	.	.	.	.	.	.	.	.
4E-\	.	4e-\	.	.	.	.	.	.	.	.	.	.	.	.	.
4E-\	.	4e-\	.	4g/	.	4b-\	.	.	.	.	.	.	.	.	.
!	!	!LO:LB:g=original	!	!	!	!	!	!	!	!	!	!	!	!	!
=148	=148	=148	=148	=148	=148	=148	=148	=148	=148	=148	=148	=148	=148	=148	=148
4r	.	4r	.	2e-/	.	2g/	.	1r	.	1r	.	1r	.	1r	.
4E-\	.	4e-\	.	.	.	.	.	.	.	.	.	.	.	.	.
4E-\	.	4e-\	.	8B-/L	.	(8g/L	.	.	.	.	.	.	.	.	.
.	.	.	.	(8c/	.	8a/	.	.	.	.	.	.	.	.	.
4E-\	.	4e-\	.	8B-/)	.	8g/	.	.	.	.	.	.	.	.	.
.	.	.	.	8A-X/J	.	8f/J)	.	.	.	.	.	.	.	.	.
=	=	=	=	=	=	=	=	=	=	=	=	=	=	=	=
2E-\	.	2e-\	.	2G/	.	2e-/	.	2r	.	2r	.	2r	.	2r	.
4r	.	4r	.	4r	.	4r	.	4r	.	4r	.	4r	.	4r	.
=149:|!	=149:|!	=149:|!	=149:|!	=149:|!	=149:|!	=149:|!	=149:|!	=149:|!	=149:|!	=149:|!	=149:|!	=149:|!	=149:|!	=149:|!	=149:|!
4r	.	4r	.	4r	.	4g/	.	4r	.	4r	.	4r	.	4r	.
!LO:LB:g=original	!	!	!	!	!	!	!	!	!	!	!	!	!	!	!
=150	=150	=150	=150	=150	=150	=150	=150	=150	=150	=150	=150	=150	=150	=150	=150
!LO:TX:b:t=Violoncelli	!	!	!	!	!	!	!LO:DY:b:t=po.	!	!	!	!	!	!	!	!
1E-	pp	1r	.	1r	.	(2.g/	p	1r	.	1r	.	1r	.	1r	.
.	.	.	.	.	.	4cc\	.	.	.	.	.	.	.	.	.
=151	=151	=151	=151	=151	=151	=151	=151	=151	=151	=151	=151	=151	=151	=151	=151
1F	.	1r	.	1r	.	2b-\)	.	1r	.	1r	.	1r	.	1r	.
.	.	.	.	.	.	2an\	.	.	.	.	.	.	.	.	.
=152	=152	=152	=152	=152	=152	=152	=152	=152	=152	=152	=152	=152	=152	=152	=152
1G	.	1r	.	1r	.	2.b-\	.	1r	.	1r	.	1r	.	1r	.
.	.	.	.	.	.	(4ee-\	.	.	.	.	.	.	.	.	.
=153	=153	=153	=153	=153	=153	=153	=153	=153	=153	=153	=153	=153	=153	=153	=153
1An	.	1r	.	1r	.	2dd\)	.	1r	.	1r	.	1r	.	1r	.
.	.	.	.	.	.	2cc\	.	.	.	.	.	.	.	.	.
=154	=154	=154	=154	=154	=154	=154	=154	=154	=154	=154	=154	=154	=154	=154	=154
1B-	.	1r	.	1r	.	2.dd\	.	1r	.	1r	.	1r	.	1r	.
.	.	.	.	.	.	(4gg\	.	.	.	.	.	.	.	.	.
=155	=155	=155	=155	=155	=155	=155	=155	=155	=155	=155	=155	=155	=155	=155	=155
1c	.	1r	.	1r	.	2ff\)	.	1r	.	1r	.	1r	.	1r	.
.	.	.	.	.	.	2een\	.	.	.	.	.	.	.	.	.
=156	=156	=156	=156	=156	=156	=156	=156	=156	=156	=156	=156	=156	=156	=156	=156
1r	.	1r	.	1r	.	1r	.	1r	.	1r	.	1r	.	1r	.
=157	=157	=157	=157	=157	=157	=157	=157	=157	=157	=157	=157	=157	=157	=157	=157
!	!	!	!	!	!	!	!LO:DY:b:t=pp&colon;	!	!	!	!	!	!	!	!
2r	.	1r	.	1r	.	1ee-X	pp	1r	.	1r	.	1r	.	1r	.
!	!LO:DY:b:t=pp&colon;	!	!	!	!	!	!	!	!	!	!	!	!	!	!
[2c\	pp	.	.	.	.	.	.	.	.	.	.	.	.	.	.
!	!	!	!	!	!	!LO:LB:g=original	!	!	!	!	!	!	!	!	!
=158	=158	=158	=158	=158	=158	=158	=158	=158	=158	=158	=158	=158	=158	=158	=158
!	!	!	!	!	!LO:DY:b:t=pp&colon;	!	!	!	!	!	!	!	!	!	!
2c\]	.	1r	.	(8cc\L	pp	8ee-\L	.	1r	.	1r	.	1r	.	1r	.
.	.	.	.	8b-\	.	(8dd\	.	.	.	.	.	.	.	.	.
.	.	.	.	8cc\	.	8ee-\	.	.	.	.	.	.	.	.	.
.	.	.	.	8dd\J)	.	8ff\J	.	.	.	.	.	.	.	.	.
2B-\	.	.	.	8cc\L	.	(8ee-\L)	.	.	.	.	.	.	.	.	.
.	.	.	.	(8b-\	.	8dd\	.	.	.	.	.	.	.	.	.
.	.	.	.	8cc\	.	8ee-\	.	.	.	.	.	.	.	.	.
.	.	.	.	8dd\J)	.	8ff\J)	.	.	.	.	.	.	.	.	.
=159	=159	=159	=159	=159	=159	=159	=159	=159	=159	=159	=159	=159	=159	=159	=159
2A\	.	2r	.	(8cc\L	.	(8ee-\L	.	1r	.	1r	.	1r	.	1r	.
.	.	.	.	8b-\	.	8dd\	.	.	.	.	.	.	.	.	.
.	.	.	.	8cc\	.	8ee-\	.	.	.	.	.	.	.	.	.
.	.	.	.	8dd\J)	.	8ff\J)	.	.	.	.	.	.	.	.	.
!	!	!	!	!LO:LB:g=original	!	!	!	!	!	!	!	!	!	!	!
2G\	.	2g\	.	8cc\L	.	(8ee-\L	.	.	.	.	.	.	.	.	.
.	.	.	.	(8b-\	.	8dd\	.	.	.	.	.	.	.	.	.
.	.	.	.	8cc\	.	8ee-\	.	.	.	.	.	.	.	.	.
.	.	.	.	8dd\J)	.	8ff\J)	.	.	.	.	.	.	.	.	.
=160	=160	=160	=160	=160	=160	=160	=160	=160	=160	=160	=160	=160	=160	=160	=160
!	!	!	!	!	!	!	!	!	!	!	!LO:DY:b:t=po.	!	!LO:DY:b:t=po.	!	!LO:DY:b:t=pia.
2F;;\	.	2f;;\	.	2cc;\	.	2ee-;;\	.	2f;;/	.	2f;/	p	2cc;\	p	2ee-;\	p
!LO:TX:b:t=da Capo \nFine al Segno	!	!LO:TX:b:t=Da Capo \nFine al Segno	!	!LO:TX:b:t=Da Capo fine al Segno	!	!LO:TX:b:t=Da Capo \nfine al Segno	!	!LO:TX:b:t=Da Capo \nFine al Segno	!	!LO:TX:b:t=Da Capo \nFine al Segno	!	!LO:TX:a:t=Da Capo	!	!LO:TX:b:t=Da Capo \nFine al Segno	!
!	!	!	!	!	!	!	!	!	!	!	!	!LO:TX:b:t= Fine al Segno	!	!	!
2r	.	2r	.	2r	.	4r	.	2r	.	2r	.	2r	.	2r	.
.	.	.	.	.	.	4ryy	.	.	.	.	.	.	.	.	.
==	==	==	==	==	==	==	==	==	==	==	==	==	==	==	==
*-	*-	*-	*-	*-	*-	*-	*-	*-	*-	*-	*-	*-	*-	*-	*-
!!!system-decoration: [(s1,s2)][(s3,s4)][(s5,s6,s7,s8)]
!!!ENC: Berenika Jozajtis
!!!END: 2020-07-20
!!!AIN: 1 cello 2 cor 2 oboe 1 viola 2 violn
!!!ENC: Urszula Świątek
!!!END: 2022-02-26
